!!!!SEGMENT: pl-cz--iii-691--004_volckmer-augustin--litaniae-lauretanae-es-agnus-dei.krn
!!!cenid: 17xx:1147
!!!COM: Volckmer, Augustin
!!!COM-rismID: pe30020656
!!!CDT: 1755-~1820
!!!CNT:
!!!OPR: Litaniae Lauretanae Es
!!!OTL: Agnus Dei
!!!OMV: 004
!!!PDT:
!!!AGN: Sacred; Mass
!!!SMS-siglum: PL-CZ
!!!SMS-shelfmark: III-691
!!!SMS-shelfwork: 001-004 M
!!!SMS-variant:
!!!SMS-altvar:
!!!NIFC-rismSourceID: 300001391
!!!NIFC-islandoraID: pl-cz:40378
!!!URL-pdf-islandora: https://repozytorium.nifc.pl/islandora/object/pl-cz%3A40378/datastream/PDF/view
!!!URL-scan:
!!!ONB-nifc: UWAGA: części Litanii: Kyrie, Mater Christi, Regina angelorum, Agnus Dei
!!!AIN: 1 alto 1 bass 2 clara 2 cor 1 organ 1 soprn 1 tenor 1 viola 2 violn
!!!key: B-
**kern	**kern	**kern	**dynam	**kern	**dynam	**kern	**text	**dynam	**kern	**text	**dynam	**kern	**text	**dynam	**kern	**text	**dynam	**kern	**dynam	**kern	**dynam	**kern	**dynam	**kern	**dynam
*	*group4	*group4	*	*group4	*	*group3	*	*	*group3	*	*	*group3	*	*	*group3	*	*	*group2	*	*group2	*	*group1	*	*group1	*
*part12	*part11	*part10	*part10	*part9	*part9	*part8	*part8	*part8	*part7	*part7	*part7	*part6	*part6	*part6	*part5	*part5	*part5	*part4	*part4	*part3	*part3	*part2	*part2	*part1	*part1
*staff12	*staff11	*staff10	*	*staff9	*	*staff8	*staff8	*	*staff7	*staff7	*	*staff6	*staff6	*	*staff5	*staff5	*	*staff4	*	*staff3	*	*staff2	*	*staff1	*
*IGcont	*IGacmp	*IGacmp	*	*IGacmp	*	*IGcoro	*	*	*IGcoro	*	*	*IGcoro	*	*	*IGcoro	*	*	*IGacmp	*	*IGacmp	*	*IGacmp	*	*IGacmp	*
*ICklav	*ICstr	*ICstr	*	*ICstr	*	*ICvox	*	*	*ICvox	*	*	*ICvox	*	*	*ICvox	*	*	*ICbras	*	*ICbras	*	*ICww	*	*ICww	*
*Iorgan	*Iviola	*Ivioln	*	*Ivioln	*	*Ibass	*	*	*Itenor	*	*	*Ialto	*	*	*Isoprn	*	*	*Icor	*	*Icor	*	*Iclara	*	*Iclara	*
*I"Organo.	*I"Viola	*I"Violino Secundo.	*	*I"Violino Primo.	*	*I"Baſso.	*	*	*I"Tenore.	*	*	*I"Alto.	*	*	*I"Canto	*	*	*I"Cornu Secundo in Dis	*	*I"Cornu Primo. in Dis	*	*I"Clarinetto Secundo in Dis	*	*I"Clarinetto Primo. in E♭	*
*I'org	*I'vla	*I'vl 2	*	*I'vl 1	*	*I'B	*	*	*I'T	*	*	*I'A	*	*	*I'S	*	*	*I'cor 2 in E|b	*	*I'cor 1 in E|b	*	*I'cl 2 in E|b	*	*I'cl 1 in E|b	*
*clefG2	*clefC3	*clefG2	*	*clefG2	*	*clefF4	*	*	*clefC4	*	*	*clefC3	*	*	*clefC1	*	*	*clefG2	*	*clefG2	*	*clefG2	*	*clefG2	*
*	*	*	*	*	*	*	*	*	*	*	*	*	*	*	*	*	*	*ITrd-2c-3	*	*ITrd-2c-3	*	*ITrd1c2	*	*ITrd1c2	*
*	*	*k[b-e-]	*	*k[b-e-]	*	*k[b-a-3e-]	*	*	*k[b-e-]	*	*	*k[b-e-]	*	*	*k[b-e-]	*	*	*k[b-e-a-]	*	*k[b-e-a-]	*	*k[b-e-a-]	*	*k[b-e-a-]	*
*B-:	*B-:	*B-:	*	*B-:	*	*B-:	*	*	*B-:	*	*	*B-:	*	*	*B-:	*	*	*B-:	*	*B-:	*	*B-:	*	*B-:	*
*	*	*M3/4	*	*M3/4	*	*M3/4	*	*	*M3/4	*	*	*M3/4	*	*	*M3/4	*	*	*M3/4	*	*M3/4	*	*M3/4	*	*M3/4	*
*2\right	*2\right	*2\right	*	*2\right	*	*2\right	*	*	*2\right	*	*	*2\right	*	*	*2\right	*	*	*2\right	*	*2\right	*	*2\right	*	*2\right	*
*all\right	*all\right	*all\right	*below	*all\right	*below	*all\right	*	*below	*all\right	*	*below	*all\right	*	*below	*all\right	*	*below	*all\right	*below	*all\right	*below	*all\right	*below	*all\right	*below
=1	=1	=1	=1	=1	=1	=1	=1	=1	=1	=1	=1	=1	=1	=1	=1	=1	=1	=1	=1	=1	=1	=1	=1	=1	=1
!	!	!	!	!	!	!	!	!	!	!	!	!LO:TX:a:t=31	!	!	!LO:TX:b:t=Solo:color=red	!	!	!	!	!	!	!	!	!	!
!	!	!	!	!	!	!LO:TX:a:t=31	!	!	!LO:TX:b:t=3i	!	!	!LO:TX:a:t=Tarde	!	!	!LO:TX:a:t=Tarde	!	!	!LO:TX:a:t=Tarde	!	!LO:TX:a:t=Tarde	!	!LO:SIC:t=błędne oznaczenie tonacji:s=k[b-e-]	!	!LO:SIC:t=błędne oznaczenie tonacji:s=k[b-e-]	!
!LO:TX:t=P:problem:brak głosu w źródle	!LO:TX:t=P:problem:brak głosu w źródle	!LO:TX:a:t=Tarde	!LO:DY:t=pia	!LO:TX:a:t=Tarde	!	!LO:TX:a:t=Tarde	!	!	!LO:TX:a:t=Tarde	!	!	!	!	!	!LO:TX:a:t=3	!	!	!LO:TX:a:t=3i	!	!LO:TX:a:t=31	!	!LO:TX:a:t=Tarde	!LO:DY:t=pia	!LO:TX:a:t=Tarde	!LO:DY:t=pia
2.ryy	2.ryy	8r	p	8r	.	0.r	.	.	0.r	.	.	0.r	.	.	1.r	.	.	0.r	.	0.r	.	2d/	p	2f/	p
!	!	!	!	!LO:TX:t=P:problem:mixed beam	!	!	!	!	!	!	!	!	!	!	!	!	!	!	!	!	!	!	!	!	!
.	.	8d'/L	.	8f'/L	.	.	.	.	.	.	.	.	.	.	.	.	.	.	.	.	.	.	.	.	.
.	.	8d'/	.	8f'/	.	.	.	.	.	.	.	.	.	.	.	.	.	.	.	.	.	.	.	.	.
.	.	8d'/	.	8f'/	.	.	.	.	.	.	.	.	.	.	.	.	.	.	.	.	.	.	.	.	.
.	.	(8f/	.	(8dd\	.	.	.	.	.	.	.	.	.	.	.	.	.	.	.	.	.	4d/	.	4b-\	.
.	.	8d/J)	.	8b-\J)	.	.	.	.	.	.	.	.	.	.	.	.	.	.	.	.	.	.	.	.	.
=2	=2	=2	=2	=2	=2	=2	=2	=2	=2	=2	=2	=2	=2	=2	=2	=2	=2	=2	=2	=2	=2	=2	=2	=2	=2
2.ryy	2.ryy	8r	.	8r	.	.	.	.	.	.	.	.	.	.	.	.	.	.	.	.	.	2e-/	.	2g/	.
!	!	!	!	!LO:TX:t=P:problem:mixed beam	!	!	!	!	!	!	!	!	!	!	!	!	!	!	!	!	!	!	!	!	!
.	.	8e-'/L	.	8g'/L	.	.	.	.	.	.	.	.	.	.	.	.	.	.	.	.	.	.	.	.	.
.	.	8e-'/	.	8g'/	.	.	.	.	.	.	.	.	.	.	.	.	.	.	.	.	.	.	.	.	.
.	.	8e-'/	.	8g'/	.	.	.	.	.	.	.	.	.	.	.	.	.	.	.	.	.	.	.	.	.
.	.	(8g/	.	(8ee-\	.	.	.	.	.	.	.	.	.	.	.	.	.	.	.	.	.	4g/	.	8ee-\L	.
.	.	8e-/J)	.	8cc\J)	.	.	.	.	.	.	.	.	.	.	.	.	.	.	.	.	.	.	.	8cc\J	.
=3	=3	=3	=3	=3	=3	=3	=3	=3	=3	=3	=3	=3	=3	=3	=3	=3	=3	=3	=3	=3	=3	=3	=3	=3	=3
2.ryy	2.ryy	8r	.	8r	.	.	.	.	.	.	.	.	.	.	2.r	.	.	.	.	.	.	8r	.	8r	.
.	.	8d/	.	8b-\|>	.	.	.	.	.	.	.	.	.	.	.	.	.	.	.	.	.	8b-\	.	8dd\|>	.
.	.	8r	.	8r	.	.	.	.	.	.	.	.	.	.	.	.	.	.	.	.	.	8r	.	8r	.
.	.	8e-/	.	8cc\|>	.	.	.	.	.	.	.	.	.	.	.	.	.	.	.	.	.	8cc\	.	8ee-\|>	.
.	.	8r	.	8r	.	.	.	.	.	.	.	.	.	.	.	.	.	.	.	.	.	8r	.	8r	.
!	!	!	!	!	!	!	!	!	!	!	!	!	!	!	!	!	!	!	!	!	!	!LO:SIC:v:s=8a\	!	!	!
.	.	8c/	.	8a/|<	.	.	.	.	.	.	.	.	.	.	.	.	.	.	.	.	.	8a-\	.	8cc\|>	.
=4	=4	=4	=4	=4	=4	=4	=4	=4	=4	=4	=4	=4	=4	=4	=4	=4	=4	=4	=4	=4	=4	=4	=4	=4	=4
2.ryy	2.ryy	8r	.	8r	.	.	.	.	.	.	.	.	.	.	8r	.	.	.	.	.	.	4b-\	.	4b-\	.
!	!	!	!LO:DY:t=pia	!	!	!	!	!	!	!	!	!	!	!	!	!	!	!	!	!	!	!	!	!	!
.	.	8dd\|>	p	8ff\L|>	.	.	.	.	.	.	.	.	.	.	(8ff\L	A-	.	.	.	.	.	.	.	.	.
!	!	!	!	!	!LO:DY:t=pia	!	!	!	!	!	!	!	!	!	!	!	!	!	!	!	!	!	!	!	!
.	.	(8g/L	.	(8ee-\	p	.	.	.	.	.	.	.	.	.	8ee-\	.	.	.	.	.	.	4r	.	4r	.
!	!	!	!	!	!	!	!	!	!	!	!	!	!	!	!LO:TX:a:t=dolce:color=red	!	!	!	!	!	!	!	!	!	!
.	.	8f/	.	8dd\	.	.	.	.	.	.	.	.	.	.	8dd\J)	.	.	.	.	.	.	.	.	.	.
!	!	!	!	!LO:TX:b:t=vox	!	!	!	!	!	!	!	!	!	!	!	!	!	!	!	!	!	!	!	!	!
.	.	8e-/	.	8cc\	.	.	.	.	.	.	.	.	.	.	8cc\L	-gnus	.	.	.	.	.	4r	.	4r	.
.	.	8d/J)	.	8b-\J)	.	.	.	.	.	.	.	.	.	.	8b-\J	.	.	.	.	.	.	.	.	.	.
=5	=5	=5	=5	=5	=5	=5	=5	=5	=5	=5	=5	=5	=5	=5	=5	=5	=5	=5	=5	=5	=5	=5	=5	=5	=5
!	!	!	!	!	!	!	!	!	!	!	!	!	!	!	!	!	!	!	!	!	!	!LO:TX:a:t=27	!	!LO:TX:a:t=i3	!
2.ryy	2.ryy	(4c/	.	4a/	.	0.r	.	.	0.r	.	.	0.r	.	.	4a\	De-	.	0.r	.	0.r	.	0.r	.	0.r	.
.	.	.	.	(<16qqcc/	.	.	.	.	.	.	.	.	.	.	8qqcc/	.	.	.	.	.	.	.	.	.	.
.	.	4d/)	.	4b-\)	.	.	.	.	.	.	.	.	.	.	4b-\	-i	.	.	.	.	.	.	.	.	.
.	.	8r	.	8r	.	.	.	.	.	.	.	.	.	.	8r	.	.	.	.	.	.	.	.	.	.
.	.	8e-/	.	8f/	.	.	.	.	.	.	.	.	.	.	8f/	qui	.	.	.	.	.	.	.	.	.
=6	=6	=6	=6	=6	=6	=6	=6	=6	=6	=6	=6	=6	=6	=6	=6	=6	=6	=6	=6	=6	=6	=6	=6	=6	=6
!	!	!LO:LB:g=original	!	!LO:LB:g=original	!	!	!	!	!	!	!	!	!	!	!	!	!	!	!	!	!	!	!	!	!
2.ryy	2.ryy	(8d/L	.	8f/	.	.	.	.	.	.	.	.	.	.	8f\L	tol-	.	.	.	.	.	.	.	.	.
.	.	8f/)	.	4b-\	.	.	.	.	.	.	.	.	.	.	8b-\J	.	.	.	.	.	.	.	.	.	.
.	.	(8f/	.	.	.	.	.	.	.	.	.	.	.	.	8b-\	-lis	.	.	.	.	.	.	.	.	.
.	.	8b-/J)	.	4dd\	.	.	.	.	.	.	.	.	.	.	8dd\	pec-	.	.	.	.	.	.	.	.	.
.	.	(8b-\L	.	.	.	.	.	.	.	.	.	.	.	.	8dd\	-ca-	.	.	.	.	.	.	.	.	.
.	.	8dd\J)	.	8ff\	.	.	.	.	.	.	.	.	.	.	8ff\	-ta	.	.	.	.	.	.	.	.	.
=7	=7	=7	=7	=7	=7	=7	=7	=7	=7	=7	=7	=7	=7	=7	=7	=7	=7	=7	=7	=7	=7	=7	=7	=7	=7
2.ryy	2.ryy	4dd\	.	4ff\	.	.	.	.	.	.	.	.	.	.	4ff\	mun-	.	.	.	.	.	.	.	.	.
.	.	(8.cc\L	.	(8.ee-\L	.	.	.	.	.	.	.	.	.	.	(16ee-\LL	.	.	.	.	.	.	.	.	.	.
.	.	.	.	.	.	.	.	.	.	.	.	.	.	.	16dd\	.	.	.	.	.	.	.	.	.	.
.	.	.	.	.	.	.	.	.	.	.	.	.	.	.	16ee-\	.	.	.	.	.	.	.	.	.	.
.	.	16dd\Jk)	.	16ff\Jk)	.	.	.	.	.	.	.	.	.	.	16ff\JJ)	.	.	.	.	.	.	.	.	.	.
.	.	4b-\	.	8dd\L|>	.	.	.	.	.	.	.	.	.	.	4dd\	-di	.	.	.	.	.	.	.	.	.
.	.	.	.	8dd\J|>	.	.	.	.	.	.	.	.	.	.	.	.	.	.	.	.	.	.	.	.	.
=8	=8	=8	=8	=8	=8	=8	=8	=8	=8	=8	=8	=8	=8	=8	=8	=8	=8	=8	=8	=8	=8	=8	=8	=8	=8
!	!	!	!	!	!	!	!	!	!	!	!	!	!	!	!LO:LB:g=original	!	!	!	!	!	!	!	!	!	!
2.ryy	2.ryy	(8e-/L	.	4cc\	.	.	.	.	.	.	.	.	.	.	4cc\	par-	.	.	.	.	.	.	.	.	.
.	.	8f/)	.	.	.	.	.	.	.	.	.	.	.	.	.	.	.	.	.	.	.	.	.	.	.
.	.	(8e-/	.	4a/	.	.	.	.	.	.	.	.	.	.	(16b-\LL	.	.	.	.	.	.	.	.	.	.
.	.	.	.	.	.	.	.	.	.	.	.	.	.	.	16a\	.	.	.	.	.	.	.	.	.	.
.	.	8f/)	.	.	.	.	.	.	.	.	.	.	.	.	16g\	.	.	.	.	.	.	.	.	.	.
.	.	.	.	.	.	.	.	.	.	.	.	.	.	.	16a\JJ)	.	.	.	.	.	.	.	.	.	.
.	.	(8d/	.	(8b-\L	.	.	.	.	.	.	.	.	.	.	8b-\	-ce	.	.	.	.	.	.	.	.	.
.	.	8f/J)	.	16cc\L	.	.	.	.	.	.	.	.	.	.	8r	.	.	.	.	.	.	.	.	.	.
.	.	.	.	16dd\JJ)	.	.	.	.	.	.	.	.	.	.	.	.	.	.	.	.	.	.	.	.	.
=9	=9	=9	=9	=9	=9	=9	=9	=9	=9	=9	=9	=9	=9	=9	=9	=9	=9	=9	=9	=9	=9	=9	=9	=9	=9
2.ryy	2.ryy	(8c/L	.	4.ee-\	.	0.r	.	.	0.r	.	.	0.r	.	.	4ee-\	par-	.	0.r	.	0.r	.	0.r	.	0.r	.
.	.	8f/)	.	.	.	.	.	.	.	.	.	.	.	.	.	.	.	.	.	.	.	.	.	.	.
.	.	(8A/	.	.	.	.	.	.	.	.	.	.	.	.	(16ee-\LL	.	.	.	.	.	.	.	.	.	.
.	.	.	.	.	.	.	.	.	.	.	.	.	.	.	16dd\	.	.	.	.	.	.	.	.	.	.
.	.	8f/	.	8cc\	.	.	.	.	.	.	.	.	.	.	16ee-\	.	.	.	.	.	.	.	.	.	.
.	.	.	.	.	.	.	.	.	.	.	.	.	.	.	16cc\JJ)	.	.	.	.	.	.	.	.	.	.
.	.	(8B-/)	.	4dd\	.	.	.	.	.	.	.	.	.	.	4dd\	-ce	.	.	.	.	.	.	.	.	.
.	.	8f/J)	.	.	.	.	.	.	.	.	.	.	.	.	.	.	.	.	.	.	.	.	.	.	.
=10	=10	=10	=10	=10	=10	=10	=10	=10	=10	=10	=10	=10	=10	=10	=10	=10	=10	=10	=10	=10	=10	=10	=10	=10	=10
2.ryy	2.ryy	4g/	.	(16cc\LL	.	.	.	.	.	.	.	.	.	.	(16cc\LL	par-	.	.	.	.	.	.	.	.	.
.	.	.	.	16ee-\)	.	.	.	.	.	.	.	.	.	.	16ee-\	.	.	.	.	.	.	.	.	.	.
.	.	.	.	16gg\|>	.	.	.	.	.	.	.	.	.	.	16gg\)	.	.	.	.	.	.	.	.	.	.
.	.	.	.	16ff\JJ|>	.	.	.	.	.	.	.	.	.	.	16ff\JJ|>	.	.	.	.	.	.	.	.	.	.
.	.	8g/L|<	.	16r	.	.	.	.	.	.	.	.	.	.	(16ff\LL	.	.	.	.	.	.	.	.	.	.
.	.	.	.	16ee-\|>	.	.	.	.	.	.	.	.	.	.	16ee-\JJ)	.	.	.	.	.	.	.	.	.	.
.	.	8f/|<	.	16r	.	.	.	.	.	.	.	.	.	.	16ee-\LL	-ce	.	.	.	.	.	.	.	.	.
.	.	.	.	16dd\|>	.	.	.	.	.	.	.	.	.	.	16dd\JJ	.	.	.	.	.	.	.	.	.	.
.	.	8e-/|<	.	16r	.	.	.	.	.	.	.	.	.	.	16dd\LL	no-	.	.	.	.	.	.	.	.	.
.	.	.	.	16cc\	.	.	.	.	.	.	.	.	.	.	16cc\JJ	.	.	.	.	.	.	.	.	.	.
.	.	8d/J|<	.	16r	.	.	.	.	.	.	.	.	.	.	16cc\LL	-bis	.	.	.	.	.	.	.	.	.
.	.	.	.	16b-\	.	.	.	.	.	.	.	.	.	.	16b-\JJ	.	.	.	.	.	.	.	.	.	.
=11	=11	=11	=11	=11	=11	=11	=11	=11	=11	=11	=11	=11	=11	=11	=11	=11	=11	=11	=11	=11	=11	=11	=11	=11	=11
2.ryy	2.ryy	4d/	.	4b-\	.	.	.	.	.	.	.	.	.	.	8b-\	Do-	.	.	.	.	.	.	.	.	.
.	.	.	.	.	.	.	.	.	.	.	.	.	.	.	16a\LL	-mi-	.	.	.	.	.	.	.	.	.
.	.	.	.	.	.	.	.	.	.	.	.	.	.	.	16b-\JJ	.	.	.	.	.	.	.	.	.	.
.	.	.	.	(<16qqa/LL	.	.	.	.	.	.	.	.	.	.	.	.	.	.	.	.	.	.	.	.	.
.	.	.	.	16qqb-/JJ	.	.	.	.	.	.	.	.	.	.	.	.	.	.	.	.	.	.	.	.	.
.	.	4c/	.	4a\)	.	.	.	.	.	.	.	.	.	.	4a\	-ne	.	.	.	.	.	.	.	.	.
!	!	!	!	!	!	!	!	!	!	!	!	!	!	!	!	!	!LO:DY:b:color=red:t=pia	!	!	!	!	!	!	!	!
.	.	4r	.	4r	.	.	.	.	.	.	.	.	.	.	8cc\	A-	p	.	.	.	.	.	.	.	.
.	.	.	.	.	.	.	.	.	.	.	.	.	.	.	8cc\	-gnus	.	.	.	.	.	.	.	.	.
=12	=12	=12	=12	=12	=12	=12	=12	=12	=12	=12	=12	=12	=12	=12	=12	=12	=12	=12	=12	=12	=12	=12	=12	=12	=12
2.ryy	2.ryy	4r	.	4r	.	.	.	.	.	.	.	.	.	.	2cc\	A-	.	.	.	.	.	.	.	.	.
.	.	(4f/	.	(4a/	.	.	.	.	.	.	.	.	.	.	.	.	.	.	.	.	.	.	.	.	.
.	.	4g/)	.	4b-/)	.	.	.	.	.	.	.	.	.	.	4cc\	-gnus	.	.	.	.	.	.	.	.	.
=13	=13	=13	=13	=13	=13	=13	=13	=13	=13	=13	=13	=13	=13	=13	=13	=13	=13	=13	=13	=13	=13	=13	=13	=13	=13
!	!	!	!	!LO:LB:g=original	!	!	!	!	!	!	!	!	!	!	!LO:LB:g=original	!	!	!	!	!	!	!	!	!	!
2.ryy	2.ryy	4r	.	4r	.	0.r	.	.	0.r	.	.	0.r	.	.	2cc\	De-	.	0.r	.	0.r	.	0.r	.	0.r	.
.	.	(4en/	.	(4g/	.	.	.	.	.	.	.	.	.	.	.	.	.	.	.	.	.	.	.	.	.
.	.	4f/)	.	4a/)	.	.	.	.	.	.	.	.	.	.	8cc\	-i	.	.	.	.	.	.	.	.	.
.	.	.	.	.	.	.	.	.	.	.	.	.	.	.	8cc\	qui	.	.	.	.	.	.	.	.	.
=14	=14	=14!|:	=14	=14	=14	=14	=14	=14	=14	=14	=14	=14	=14	=14	=14	=14	=14	=14	=14	=14	=14	=14	=14	=14	=14
*	*	*^	*	*	*	*	*	*	*	*	*	*	*	*	*	*	*	*	*	*	*	*	*	*	*
!	!	!	!	!	!	!	!	!	!	!	!	!	!	!	!	!	!	!LO:HP:b:color=red	!	!	!	!	!	!	!	!
2.ryy	2.ryy	8r	8ryy	.	(8ff\L	.	.	.	.	.	.	.	.	.	.	(4.ff\	tol-	<	.	.	.	.	.	.	.	.
.	.	8ryy	8fL/|<	.	8cc\J)	.	.	.	.	.	.	.	.	.	.	.	.	.	.	.	.	.	.	.	.	.
*	*	*tremolo	*	*	*	*	*	*	*	*	*	*	*	*	*	*	*	*	*	*	*	*	*	*	*	*
!	!	!LO:TX:b:t=||||	!	!	!	!	!	!	!	!	!	!	!	!	!	!	!	!	!	!	!	!	!	!	!	!
.	.	8f/L|<y	8gRJ/yy	.	(8cc'\L	.	.	.	.	.	.	.	.	.	.	.	.	.	.	.	.	.	.	.	.	.
.	.	8f/|<y	8ryy	.	8cc'\	.	.	.	.	.	.	.	.	.	.	8een\)	.	.	.	.	.	.	.	.	.	.
.	.	8f/|<y	8ryy	.	8cc'\	.	.	.	.	.	.	.	.	.	.	8ee-X\	-lis	[	.	.	.	.	.	.	.	.
.	.	8f/J|<y	8ryy	.	8cc'\J)	.	.	.	.	.	.	.	.	.	.	8cc\	pec-	.	.	.	.	.	.	.	.	.
*	*	*Xtremolo	*	*	*	*	*	*	*	*	*	*	*	*	*	*	*	*	*	*	*	*	*	*	*	*
=15	=15	=15:|!	=15	=15	=15	=15	=15	=15	=15	=15	=15	=15	=15	=15	=15	=15	=15	=15	=15	=15	=15	=15	=15	=15	=15	=15
!	!	!LO:TX:t=P:problem:takt zapisany repetycją (ołówkiem)	!	!	!	!	!	!	!	!	!	!	!	!	!	!	!	!LO:DY:b:color=red:t=forto	!	!	!	!	!	!	!	!
2.ryy	2.ryy	8ryy	8ryy	.	8r	.	.	.	.	.	.	.	.	.	.	4cc#X\	-ca-	f	.	.	.	.	.	.	.	.
.	.	8ryy	8fL/|<yy	.	8dd\|>	.	.	.	.	.	.	.	.	.	.	.	.	.	.	.	.	.	.	.	.	.
.	.	8f/Lyy|<y	8gRJ/yyyy	.	(8dd'\L	.	.	.	.	.	.	.	.	.	.	16dd\LL	.	.	.	.	.	.	.	.	.	.
.	.	.	.	.	.	.	.	.	.	.	.	.	.	.	.	(16ff\	.	.	.	.	.	.	.	.	.	.
.	.	8f/yy|<y	8ryy	.	8dd'\	.	.	.	.	.	.	.	.	.	.	16een\	.	.	.	.	.	.	.	.	.	.
.	.	.	.	.	.	.	.	.	.	.	.	.	.	.	.	16ff\JJ)	.	.	.	.	.	.	.	.	.	.
.	.	8f/yy|<y	8ryy	.	8dd'\	.	.	.	.	.	.	.	.	.	.	(16gg\LL	.	.	.	.	.	.	.	.	.	.
.	.	.	.	.	.	.	.	.	.	.	.	.	.	.	.	16ff\	.	.	.	.	.	.	.	.	.	.
.	.	8f/Jyy|<y	8ryy	.	8dd'\J)	.	.	.	.	.	.	.	.	.	.	16ee\	.	.	.	.	.	.	.	.	.	.
.	.	.	.	.	.	.	.	.	.	.	.	.	.	.	.	16dd\JJ)	.	.	.	.	.	.	.	.	.	.
*	*	*v	*v	*	*	*	*	*	*	*	*	*	*	*	*	*	*	*	*	*	*	*	*	*	*	*
=16	=16	=16	=16	=16	=16	=16	=16	=16	=16	=16	=16	=16	=16	=16	=16	=16	=16	=16	=16	=16	=16	=16	=16	=16	=16
2.ryy	2.ryy	8a/L	.	8cc\L	.	.	.	.	.	.	.	.	.	.	(16ccn\LL	.	.	.	.	.	.	.	.	.	.
.	.	.	.	.	.	.	.	.	.	.	.	.	.	.	16ff\JJ)	.	.	.	.	.	.	.	.	.	.
.	.	(16b-/L	.	(16dd\L	.	.	.	.	.	.	.	.	.	.	(32een\LLL	-ta	.	.	.	.	.	.	.	.	.
.	.	.	.	.	.	.	.	.	.	.	.	.	.	.	32dd\	.	.	.	.	.	.	.	.	.	.
.	.	16g/JJ)	.	16b-\JJ)	.	.	.	.	.	.	.	.	.	.	32cc\	.	.	.	.	.	.	.	.	.	.
.	.	.	.	.	.	.	.	.	.	.	.	.	.	.	32b-\JJJ)	.	.	.	.	.	.	.	.	.	.
.	.	4f/	.	4a/	.	.	.	.	.	.	.	.	.	.	(4a\	mun-	.	.	.	.	.	.	.	.	.
.	.	4en/	.	4g/	.	.	.	.	.	.	.	.	.	.	4g\)	.	.	.	.	.	.	.	.	.	.
=17	=17	=17	=17	=17	=17	=17	=17	=17	=17	=17	=17	=17	=17	=17	=17	=17	=17	=17	=17	=17	=17	=17	=17	=17	=17
2.ryy	2.ryy	4f/	.	4f/	.	0.r	.	.	0.r	.	.	0.r	.	.	4f/	-di	.	0.r	.	0.r	.	0.r	.	2.r	.
!	!	!LO:TX:a:t=dolce	!	!	!	!	!	!	!	!	!	!	!	!	!	!	!	!	!	!	!	!	!	!	!
.	.	(8en/L	.	4r	.	.	.	.	.	.	.	.	.	.	4r	.	.	.	.	.	.	.	.	.	.
.	.	8f/)	.	.	.	.	.	.	.	.	.	.	.	.	.	.	.	.	.	.	.	.	.	.	.
.	.	(8e/	.	4r	.	.	.	.	.	.	.	.	.	.	4r	.	.	.	.	.	.	.	.	.	.
.	.	8f/J)	.	.	.	.	.	.	.	.	.	.	.	.	.	.	.	.	.	.	.	.	.	.	.
=18	=18	=18	=18	=18	=18	=18	=18	=18	=18	=18	=18	=18	=18	=18	=18	=18	=18	=18	=18	=18	=18	=18	=18	=18	=18
*	*	*	*	*^	*	*	*	*	*	*	*	*	*	*	*	*	*	*	*	*	*	*	*	*	*
*	*	*	*	*	*cue	*	*	*	*	*	*	*	*	*	*	*	*	*	*	*	*	*	*	*	*	*
!	!	!	!	!LO:TX:a:t=Clarinetto	!	!	!	!	!	!	!	!	!	!	!	!	!	!	!	!	!	!	!	!	!	!
!	!	!	!	!LO:TX:b:t=1	!	!	!	!	!	!	!	!	!	!	!	!LO:TX:a:t=i	!	!	!	!	!	!	!	!	!LO:TX:b:t=Solo dolce	!
2.ryy	2.ryy	(8e-X/L	.	2.rf	8cc/L	.	.	.	.	.	.	.	.	.	.	2.r	.	.	.	.	.	.	.	.	(8cc\L	.
.	.	8f/	.	.	(8ccc/	.	.	.	.	.	.	.	.	.	.	.	.	.	.	.	.	.	.	.	8ccc\)	.
.	.	(8e-/)	.	.	8bb-/	.	.	.	.	.	.	.	.	.	.	.	.	.	.	.	.	.	.	.	8bb-\|>	.
!	!	!	!	!	!	!	!	!	!	!	!	!	!	!	!	!	!	!	!	!	!	!	!	!	!LO:SIC:v:s=8aa\|>	!
.	.	8f/)	.	.	8aa/	.	.	.	.	.	.	.	.	.	.	.	.	.	.	.	.	.	.	.	8aa-\|>	.
.	.	(8e-/	.	.	8gg/	.	.	.	.	.	.	.	.	.	.	.	.	.	.	.	.	.	.	.	(8gg\	.
.	.	8f/J)	.	.	8ff/J)	.	.	.	.	.	.	.	.	.	.	.	.	.	.	.	.	.	.	.	8ff\J)	.
=19	=19	=19	=19	=19	=19	=19	=19	=19	=19	=19	=19	=19	=19	=19	=19	=19	=19	=19	=19	=19	=19	=19	=19	=19	=19	=19
!	!	!	!	!	!	!	!	!	!	!	!	!	!	!	!	!LO:LB:g=original	!	!	!	!	!	!	!	!	!	!
2.ryy	2.ryy	(8d/L	.	4re	8bb-/L	.	.	.	.	.	.	.	.	.	.	4r	.	.	.	.	.	.	.	.	(8bb-\L	.
.	.	8f/)	.	.	8ff/J	.	.	.	.	.	.	.	.	.	.	.	.	.	.	.	.	.	.	.	8ff\J)	.
.	.	(8d/	.	16rc	4ff/	.	.	.	.	.	.	.	.	.	.	16r	.	.	.	.	.	.	.	.	4ff\|>	.
!	!	!	!	!	!	!	!	!	!	!	!	!	!	!	!	!LO:TX:b:t=dol&colon;:color=red	!	!	!	!	!	!	!	!	!	!
.	.	.	.	(16ff\LL	.	.	.	.	.	.	.	.	.	.	.	(16ff\LL	ex	.	.	.	.	.	.	.	.	.
.	.	8f/)	.	16gg\	.	.	.	.	.	.	.	.	.	.	.	16gg\	.	.	.	.	.	.	.	.	.	.
.	.	.	.	16ff\JJ)	.	.	.	.	.	.	.	.	.	.	.	16ff\JJ)	.	.	.	.	.	.	.	.	.	.
.	.	(8d/	.	(16ee-\LL	4ryy	.	.	.	.	.	.	.	.	.	.	(16ee-\LL	au-	.	.	.	.	.	.	.	4r	.
.	.	.	.	16dd\	.	.	.	.	.	.	.	.	.	.	.	16dd\	.	.	.	.	.	.	.	.	.	.
.	.	8f/J)	.	16cc\	.	.	.	.	.	.	.	.	.	.	.	16cc\	.	.	.	.	.	.	.	.	.	.
.	.	.	.	16b-\JJ)	.	.	.	.	.	.	.	.	.	.	.	16b-\JJ)	.	.	.	.	.	.	.	.	.	.
*	*	*	*	*v	*v	*	*	*	*	*	*	*	*	*	*	*	*	*	*	*	*	*	*	*	*	*
=20	=20	=20	=20	=20	=20	=20	=20	=20	=20	=20	=20	=20	=20	=20	=20	=20	=20	=20	=20	=20	=20	=20	=20	=20	=20
!	!	!	!	!	!	!	!	!	!	!	!	!	!	!	!	!	!	!	!	!	!	!	!	!LO:LB:g=original	!
!	!	!	!	!LO:LB:g=original	!	!	!	!	!	!	!	!	!	!	!	!	!	!	!	!	!	!	!	!LO:TX:a:t=2	!
2.ryy	2.ryy	8c/L	.	(8a\L	.	.	.	.	.	.	.	.	.	.	(16a\LL	.	.	.	.	.	.	.	.	1.r	.
.	.	.	.	.	.	.	.	.	.	.	.	.	.	.	16b-\	.	.	.	.	.	.	.	.	.	.
.	.	8f/J	.	16cc\L	.	.	.	.	.	.	.	.	.	.	16cc\	.	.	.	.	.	.	.	.	.	.
.	.	.	.	16dd\JJ)	.	.	.	.	.	.	.	.	.	.	16dd\JJ)	.	.	.	.	.	.	.	.	.	.
!	!	!	!	!	!	!	!	!	!	!	!	!	!	!	!	!	!LO:DY:b:color=red:t=fort	!	!	!	!	!	!	!	!
.	.	.	.	(<16qqff/	.	.	.	.	.	.	.	.	.	.	8qqff/	.	f	.	.	.	.	.	.	.	.
.	.	(8cc\L	.	4ee-\)	.	.	.	.	.	.	.	.	.	.	4ee-\	-di	.	.	.	.	.	.	.	.	.
.	.	8f\)	.	.	.	.	.	.	.	.	.	.	.	.	.	.	.	.	.	.	.	.	.	.	.
.	.	(8b-\	.	4dd\|>	.	.	.	.	.	.	.	.	.	.	4dd\	ex	.	.	.	.	.	.	.	.	.
.	.	8f\J)	.	.	.	.	.	.	.	.	.	.	.	.	.	.	.	.	.	.	.	.	.	.	.
=21	=21	=21	=21	=21	=21	=21	=21	=21	=21	=21	=21	=21	=21	=21	=21	=21	=21	=21	=21	=21	=21	=21	=21	=21	=21
2.ryy	2.ryy	(8b-/L	.	(4dd\	.	0.r	.	.	0.r	.	.	0.r	.	.	8dd\	au-	.	0.r	.	0.r	.	0.r	.	.	.
.	.	8f/)	.	.	.	.	.	.	.	.	.	.	.	.	16cc\LL	-di	.	.	.	.	.	.	.	.	.
.	.	.	.	.	.	.	.	.	.	.	.	.	.	.	16dd\JJ	.	.	.	.	.	.	.	.	.	.
.	.	(8a/	.	4cc\)	.	.	.	.	.	.	.	.	.	.	4cc\	nos	.	.	.	.	.	.	.	.	.
.	.	8f/)	.	.	.	.	.	.	.	.	.	.	.	.	.	.	.	.	.	.	.	.	.	.	.
.	.	(8en/	.	4r	.	.	.	.	.	.	.	.	.	.	4r	.	.	.	.	.	.	.	.	.	.
.	.	8f/J)	.	.	.	.	.	.	.	.	.	.	.	.	.	.	.	.	.	.	.	.	.	.	.
=22	=22	=22	=22	=22	=22	=22	=22	=22	=22	=22	=22	=22	=22	=22	=22	=22	=22	=22	=22	=22	=22	=22	=22	=22	=22
*	*	*	*	*^	*	*	*	*	*	*	*	*	*	*	*	*	*	*	*	*	*	*	*	*	*
!	!	!LO:LB:g=original	!	!LO:TX:b:t=1	!	!	!	!	!	!	!	!	!	!	!	!LO:TX:a:t=1	!	!	!	!	!	!	!	!	!LO:TX:b:t=Solo dolce	!
2.ryy	2.ryy	(8e-X/L	.	2.rc	8cc/L	.	.	.	.	.	.	.	.	.	.	2.r	.	.	.	.	.	.	.	.	(8cc\L	.
.	.	8f/)	.	.	(8ccc/	.	.	.	.	.	.	.	.	.	.	.	.	.	.	.	.	.	.	.	8ccc\)	.
.	.	(8e-/	.	.	8bb-/	.	.	.	.	.	.	.	.	.	.	.	.	.	.	.	.	.	.	.	8bb-\|>	.
!	!	!	!	!	!	!	!	!	!	!	!	!	!	!	!	!	!	!	!	!	!	!	!	!	!LO:SIC:v:s=8aa\|>	!
.	.	8f/)	.	.	8aa/	.	.	.	.	.	.	.	.	.	.	.	.	.	.	.	.	.	.	.	8aa-\|>	.
.	.	(8e-/	.	.	8gg/	.	.	.	.	.	.	.	.	.	.	.	.	.	.	.	.	.	.	.	(8gg\	.
.	.	8f/J)	.	.	8ff/J)	.	.	.	.	.	.	.	.	.	.	.	.	.	.	.	.	.	.	.	8ff\J)	.
!	!	!	!	!LO:TX:b:t=volti Subito	!	!	!	!	!	!	!	!	!	!	!	!	!	!	!	!	!	!	!	!	!	!
=23	=23	=23	=23	=23	=23	=23	=23	=23	=23	=23	=23	=23	=23	=23	=23	=23	=23	=23	=23	=23	=23	=23	=23	=23	=23	=23
!	!	!	!	!LO:PB:g=original	!LO:PB:g=original	!	!	!	!	!	!	!	!	!	!	!	!	!	!	!	!	!	!	!	!	!
2.ryy	2.ryy	(8d/L	.	4rc	(8bb-/L	.	.	.	.	.	.	.	.	.	.	4r	.	.	.	.	.	.	.	.	(8bb-\L	.
.	.	8f/	.	.	8ff/J)	.	.	.	.	.	.	.	.	.	.	.	.	.	.	.	.	.	.	.	8ff\J)	.
.	.	(8d/)	.	8rc	4ff/	.	.	.	.	.	.	.	.	.	.	16r	.	.	.	.	.	.	.	.	4ff\	.
!	!	!	!	!	!	!	!	!	!	!	!	!	!	!	!	!	!	!LO:DY:b:color=red:t=pia	!	!	!	!	!	!	!	!
.	.	.	.	.	.	.	.	.	.	.	.	.	.	.	.	(16ff\LL	ex-	p	.	.	.	.	.	.	.	.
!	!	!	!	!	!	!LO:DY:t=piano	!	!	!	!	!	!	!	!	!	!	!	!	!	!	!	!	!	!	!	!
.	.	8f/	.	8ff\L	.	p	.	.	.	.	.	.	.	.	.	16gg\	.	.	.	.	.	.	.	.	.	.
.	.	.	.	.	.	.	.	.	.	.	.	.	.	.	.	16ff\JJ)	.	.	.	.	.	.	.	.	.	.
.	.	.	.	16qqee-/	.	.	.	.	.	.	.	.	.	.	.	.	.	.	.	.	.	.	.	.	.	.
.	.	(8d/)	.	8dd\	4ryy	.	.	.	.	.	.	.	.	.	.	(16ee-\LL	.	.	.	.	.	.	.	.	4r	.
.	.	.	.	.	.	.	.	.	.	.	.	.	.	.	.	16dd\	.	.	.	.	.	.	.	.	.	.
.	.	.	.	16qqcc/	.	.	.	.	.	.	.	.	.	.	.	.	.	.	.	.	.	.	.	.	.	.
.	.	8f/J)	.	8b-\J	.	.	.	.	.	.	.	.	.	.	.	16cc\)	.	.	.	.	.	.	.	.	.	.
.	.	.	.	.	.	.	.	.	.	.	.	.	.	.	.	16b-\JJ	.	.	.	.	.	.	.	.	.	.
*	*	*	*	*v	*v	*	*	*	*	*	*	*	*	*	*	*	*	*	*	*	*	*	*	*	*	*
=24	=24	=24	=24	=24	=24	=24	=24	=24	=24	=24	=24	=24	=24	=24	=24	=24	=24	=24	=24	=24	=24	=24	=24	=24	=24
!	!	!	!	!	!	!	!	!	!	!	!	!	!	!	!	!	!	!	!	!	!	!	!	!LO:TX:a:t=4	!
2.ryy	2.ryy	8c/L	.	8a\L	.	.	.	.	.	.	.	.	.	.	(16a\LL	-au-	.	.	.	.	.	.	.	0.r	.
.	.	.	.	.	.	.	.	.	.	.	.	.	.	.	16b-\	.	.	.	.	.	.	.	.	.	.
.	.	8f/J	.	(16cc\L	.	.	.	.	.	.	.	.	.	.	16cc\	.	.	.	.	.	.	.	.	.	.
.	.	.	.	16dd\JJ)	.	.	.	.	.	.	.	.	.	.	16dd\JJ)	.	.	.	.	.	.	.	.	.	.
!	!	!	!	!	!	!	!	!	!	!	!	!	!	!	!	!	!LO:DY:b:color=red:t=fort	!	!	!	!	!	!	!	!
.	.	.	.	.	.	.	.	.	.	.	.	.	.	.	8qqff/	.	f	.	.	.	.	.	.	.	.
.	.	8cc\L	.	4ee-\	.	.	.	.	.	.	.	.	.	.	4ee-\	-di	.	.	.	.	.	.	.	.	.
.	.	8f\	.	.	.	.	.	.	.	.	.	.	.	.	.	.	.	.	.	.	.	.	.	.	.
.	.	8b-\	.	4dd\	.	.	.	.	.	.	.	.	.	.	4dd\	ex-	.	.	.	.	.	.	.	.	.
.	.	8f\J	.	.	.	.	.	.	.	.	.	.	.	.	.	.	.	.	.	.	.	.	.	.	.
=25	=25	=25	=25	=25	=25	=25	=25	=25	=25	=25	=25	=25	=25	=25	=25	=25	=25	=25	=25	=25	=25	=25	=25	=25	=25
*	*	*^	*	*	*	*	*	*	*	*	*	*	*	*	*	*	*	*	*	*	*	*	*	*	*
!	!	!	!	!	!	!	!	!	!	!	!	!	!	!	!	!LO:LB:g=original	!	!	!	!	!	!	!	!	!	!
2.ryy	2.ryy	8r	8ryy	.	(2gg\	.	0.r	.	.	0.r	.	.	0.r	.	.	2gg\	-au-	.	0.r	.	0.r	.	0.r	.	.	.
.	.	8ryy	8b-\L'	.	.	.	.	.	.	.	.	.	.	.	.	.	.	.	.	.	.	.	.	.	.	.
*	*	*tremolo	*	*	*	*	*	*	*	*	*	*	*	*	*	*	*	*	*	*	*	*	*	*	*	*
!	!	!LO:TX:a:t=....	!	!	!	!	!	!	!	!	!	!	!	!	!	!	!	!	!	!	!	!	!	!	!	!
.	.	8b-\L'y	8ccR\Jyy	.	.	.	.	.	.	.	.	.	.	.	.	.	.	.	.	.	.	.	.	.	.	.
.	.	8b-'y	8ryy	.	.	.	.	.	.	.	.	.	.	.	.	.	.	.	.	.	.	.	.	.	.	.
.	.	8b-'y	8ryy	.	4ff\)	.	.	.	.	.	.	.	.	.	.	4ff\	-di	.	.	.	.	.	.	.	.	.
.	.	8b-J'y	8ryy	.	.	.	.	.	.	.	.	.	.	.	.	.	.	.	.	.	.	.	.	.	.	.
*	*	*Xtremolo	*	*	*	*	*	*	*	*	*	*	*	*	*	*	*	*	*	*	*	*	*	*	*	*
*	*	*v	*v	*	*	*	*	*	*	*	*	*	*	*	*	*	*	*	*	*	*	*	*	*	*	*
=26	=26	=26	=26	=26	=26	=26	=26	=26	=26	=26	=26	=26	=26	=26	=26	=26	=26	=26	=26	=26	=26	=26	=26	=26	=26
2.ryy	2.ryy	8a'\L	.	4r	.	.	.	.	.	.	.	.	.	.	8ff\L	au-	.	.	.	.	.	.	.	.	.
.	.	8a'\	.	.	.	.	.	.	.	.	.	.	.	.	8een\J	.	.	.	.	.	.	.	.	.	.
.	.	8cc'\	.	4.ee-\	.	.	.	.	.	.	.	.	.	.	4.ee-X\	-di	.	.	.	.	.	.	.	.	.
.	.	8cc'\	.	.	.	.	.	.	.	.	.	.	.	.	.	.	.	.	.	.	.	.	.	.	.
.	.	8b-'\	.	.	.	.	.	.	.	.	.	.	.	.	.	.	.	.	.	.	.	.	.	.	.
.	.	8b-'\J	.	8dd\	.	.	.	.	.	.	.	.	.	.	8dd\	nos	.	.	.	.	.	.	.	.	.
=27	=27	=27	=27	=27	=27	=27	=27	=27	=27	=27	=27	=27	=27	=27	=27	=27	=27	=27	=27	=27	=27	=27	=27	=27	=27
2.ryy	2.ryy	8g/L	.	8cc\L|>	.	.	.	.	.	.	.	.	.	.	16dd\LL	Do-	.	.	.	.	.	.	.	.	.
.	.	.	.	.	.	.	.	.	.	.	.	.	.	.	16cc\	.	.	.	.	.	.	.	.	.	.
.	.	8e-/J	.	(16ee-\L	.	.	.	.	.	.	.	.	.	.	16ee-\	.	.	.	.	.	.	.	.	.	.
.	.	.	.	16cc\JJ)	.	.	.	.	.	.	.	.	.	.	16cc\JJ	.	.	.	.	.	.	.	.	.	.
.	.	4d/	.	4b-\	.	.	.	.	.	.	.	.	.	.	4b-\	-mi-	.	.	.	.	.	.	.	.	.
.	.	4c/	.	4a\	.	.	.	.	.	.	.	.	.	.	4a\	-ne	.	.	.	.	.	.	.	.	.
=28	=28	=28	=28	=28	=28	=28	=28	=28	=28	=28	=28	=28	=28	=28	=28	=28	=28	=28	=28	=28	=28	=28	=28	=28	=28
!	!	!	!	!	!	!	!	!	!	!	!	!	!	!	!	!	!LO:DY:b:color=red:t=pia	!	!	!	!	!	!	!	!
2.ryy	2.ryy	8dd\L|>	.	8ff\L|>	.	.	.	.	.	.	.	.	.	.	(16ff\LL	ex-	p	.	.	.	.	.	.	8dd\L|>	pp
.	.	.	.	.	.	.	.	.	.	.	.	.	.	.	16gg\)	.	.	.	.	.	.	.	.	.	.
.	.	8cc\|>	.	8ee-\|>	.	.	.	.	.	.	.	.	.	.	(16ee-\	.	.	.	.	.	.	.	.	8cc\|>	.
.	.	.	.	.	.	.	.	.	.	.	.	.	.	.	16ff\JJ)	.	.	.	.	.	.	.	.	.	.
.	.	8b-\|>	.	8dd\|>	.	.	.	.	.	.	.	.	.	.	(16dd\LL	.	.	.	.	.	.	.	.	8b-\|>	.
.	.	.	.	.	.	.	.	.	.	.	.	.	.	.	16ee-\)	.	.	.	.	.	.	.	.	.	.
!	!	!	!	!	!	!	!	!	!	!	!	!	!	!	!	!	!	!	!	!	!	!	!	!LO:SIC:v:s=8a\J|>	!
.	.	8a-X\J|>	.	8cc\|>	.	.	.	.	.	.	.	.	.	.	(16cc\	.	.	.	.	.	.	.	.	8a-\J|>	.
.	.	.	.	.	.	.	.	.	.	.	.	.	.	.	16dd\JJ)	.	.	.	.	.	.	.	.	.	.
.	.	8g/L|<|<	.	8b-\|>	.	.	.	.	.	.	.	.	.	.	16b-\LL	.	.	.	.	.	.	.	.	8g/L|<	.
.	.	.	.	.	.	.	.	.	.	.	.	.	.	.	16cc\	.	.	.	.	.	.	.	.	.	.
.	.	8f/J|<	.	8a-X\J|>	.	.	.	.	.	.	.	.	.	.	16a-X\	.	.	.	.	.	.	.	.	8f/J|<	.
.	.	.	.	.	.	.	.	.	.	.	.	.	.	.	16b-\JJ	.	.	.	.	.	.	.	.	.	.
=29	=29	=29	=29	=29	=29	=29	=29	=29	=29	=29	=29	=29	=29	=29	=29	=29	=29	=29	=29	=29	=29	=29	=29	=29	=29
!	!	!LO:LB:g=original	!	!LO:LB:g=original	!	!	!	!	!	!	!	!	!	!	!	!	!	!	!	!	!	!	!	!	!
!	!	!LO:TX:t=P:problem:mixed beam	!	!LO:TX:t=P:problem:mixed beam	!	!	!	!	!	!	!	!	!	!	!	!	!	!	!	!	!	!	!	!LO:TX:t=P:problem:mixed beam	!
2.ryy	2.ryy	8e-/L	.	8g/L|<	.	1.r	.	.	1.r	.	.	1.r	.	.	8g\L	-au-	.	1.r	.	1.r	.	1.r	.	(8e-/L	.
!	!	!	!	!	!	!	!	!	!	!	!	!	!	!	!	!	!LO:HP:b:color=red	!	!	!	!	!	!	!	!
.	.	(8ee-\	.	(8gg\	.	.	.	.	.	.	.	.	.	.	(8gg\	.	<	.	.	.	.	.	.	8ee-\	.
.	.	8dd\	.	8ff#X\	.	.	.	.	.	.	.	.	.	.	8ff#X\	.	.	.	.	.	.	.	.	8dd\	.
.	.	8ee-\)	.	8gg\J)	.	.	.	.	.	.	.	.	.	.	8gg\J)	.	.	.	.	.	.	.	.	8ee-\)	.
.	.	8gg\|>	.	8bb-\L|>	.	.	.	.	.	.	.	.	.	.	8bb-\	-di	.	.	.	.	.	.	.	(8gg\	.
!	!	!	!	!	!	!	!	!	!	!	!	!	!	!	!	!	!LO:DY:b:color=red:t=fort	!	!	!	!	!	!	!	!
.	.	8ee-\J|>	.	8gg\J|>	.	.	.	.	.	.	.	.	.	.	8gg\	nos	f	.	.	.	.	.	.	8ee-\J)	.
=30	=30	=30	=30	=30	=30	=30	=30	=30	=30	=30	=30	=30	=30	=30	=30	=30	=30	=30	=30	=30	=30	=30	=30	=30	=30
!	!	!	!	!	!	!	!	!	!	!	!	!	!	!	!LO:LB:g=original	!	!	!	!	!	!	!	!	!	!
2.ryy	2.ryy	8dd\L	.	(16ffn\LL	.	.	.	.	.	.	.	.	.	.	(16ff\LL	Do-	.	.	.	.	.	.	.	4dd\	.
.	.	.	.	16ff#X\)	.	.	.	.	.	.	.	.	.	.	16ff#X\	.	.	.	.	.	.	.	.	.	.
.	.	(16ee-\L	.	16gg\|>	.	.	.	.	.	.	.	.	.	.	16gg\	.	.	.	.	.	.	.	.	.	.
.	.	16cc\JJ)	.	16ee-\JJ|>	.	.	.	.	.	.	.	.	.	.	16ee-\JJ)	.	.	.	.	.	.	.	.	.	.
.	.	4b-\	.	4dd\	.	.	.	.	.	.	.	.	.	.	4dd\	.	.	.	.	.	.	.	.	4r	.
.	.	4a/	.	4cc\	.	.	.	.	.	.	.	.	.	.	4cc\	-mi-	.	.	.	.	.	.	.	4r	.
=31	=31	=31	=31	=31	=31	=31	=31	=31	=31	=31	=31	=31	=31	=31	=31	=31	=31	=31	=31	=31	=31	=31	=31	=31	=31
!	!	!	!	!	!	!	!	!	!	!	!	!	!	!	!	!	!	!	!	!	!	!	!	!LO:TX:a:t=i	!
2.ryy	2.ryy	4d/ 4b-	.	4d/ 4b-	.	2.r	.	.	2.r	.	.	2.r	.	.	4b-\	-ne	.	2.r	.	2.r	.	2.r	.	2.r	.
.	.	4r	.	4r	.	.	.	.	.	.	.	.	.	.	4r	.	.	.	.	.	.	.	.	.	.
.	.	4r	.	4r	.	.	.	.	.	.	.	.	.	.	4r	.	.	.	.	.	.	.	.	.	.
!	!	!LO:TX:b:t=volti Subit&colon; Citto ⸓	!	!	!	!	!	!	!	!	!	!	!	!	!	!	!	!	!	!	!	!	!	!	!
=32||	=32||	=32||	=32||	=32	=32||	=32||	=32||	=32||	=32||	=32||	=32||	=32||	=32||	=32||	=32||	=32||	=32||	=32||	=32||	=32||	=32||	=32||	=32||	=32||	=32||
*	*	*k[b-e-a-]	*	*k[b-e-a-]	*	*	*	*	*	*	*	*	*	*	*k[e-b-a-]	*	*	*	*	*	*	*	*	*	*
!	!	!LO:PB:g=original	!	!	!	!	!	!	!LO:TX:t=P:problem:brak zmiany tonacji	!	!	!LO:TX:t=P:problem:brak zmiany tonacji	!	!	!	!	!	!	!	!	!	!	!	!	!
!	!	!	!	!	!LO:DY:t=forto	!LO:TX:b:t=Tutti:color=red:rj	!	!	!LO:TX:a:t=Tutti:color=red	!	!	!LO:TX:b:t=Tutti:rj:color=red	!	!	!LO:TX:a:t=Tutti:color=red:rj	!	!LO:DY:b:color=red:t=fort:rj	!	!LO:DY:t=fort:rj	!	!LO:DY:t=fort	!	!LO:DY:t=fort	!	!LO:DY:t=forto
2.ryy	2.ryy	8r	.	8r	f	2E-\	A-	.	2e-\	A-	.	2g\	Ag-	.	2b-\	A-	f	4e-/	f	4ee-\	f	2g/	f	2b-\	f
!	!	!	!LO:DY:a:t=forto	!	!	!	!	!	!	!	!	!	!	!	!	!	!	!	!	!	!	!	!	!	!
.	.	8g'/L	f	8b-'\L	.	.	.	.	.	.	.	.	.	.	.	.	.	.	.	.	.	.	.	.	.
.	.	8g'/	.	8b-'\	.	.	.	.	.	.	.	.	.	.	.	.	.	4r	.	4r	.	.	.	.	.
.	.	8g'/	.	8b-'\	.	.	.	.	.	.	.	.	.	.	.	.	.	.	.	.	.	.	.	.	.
.	.	(8b-/	.	(8gg\	.	4E-\	-gnus	.	4e-\	-gnus	.	4g\	-nus	.	4ee-\	-gnus	.	4r	.	4r	.	8b-\L	.	(8gg\L	.
.	.	8g/J)	.	8ee-\J)	.	.	.	.	.	.	.	.	.	.	.	.	.	.	.	.	.	8g\J	.	8ee-\J)	.
=33	=33	=33	=33	=33	=33	=33	=33	=33	=33	=33	=33	=33	=33	=33	=33	=33	=33	=33	=33	=33	=33	=33	=33	=33	=33
!	!	!	!	!	!	!	!	!	!	!	!	!LO:SIC:v:s=2a-\	!	!	!	!	!	!	!	!	!	!	!	!	!
2.ryy	2.ryy	8r	.	8r	.	2A-\	A-	.	2e-\	Ag-	.	2a\	Ag-	.	2cc\	A-	.	4e-/	.	4ee-\	.	2a-\	.	2cc\	.
.	.	8a-'/L	.	8cc'\L	.	.	.	.	.	.	.	.	.	.	.	.	.	.	.	.	.	.	.	.	.
.	.	8a-'/	.	8cc'\	.	.	.	.	.	.	.	.	.	.	.	.	.	4r	.	4r	.	.	.	.	.
.	.	8a-'/	.	8cc'\	.	.	.	.	.	.	.	.	.	.	.	.	.	.	.	.	.	.	.	.	.
!	!	!	!	!	!	!	!	!	!	!	!	!LO:SIC:v:s=4a-\	!	!	!	!	!	!	!	!	!	!	!	!	!
.	.	(8cc/	.	(8aa-\	.	4A-\	-gnus	.	8e-\L	-nus	.	4a\	-nus	.	4ff\	-gnus	.	4r	.	4r	.	8cc\L	.	(8aa-\L	.
.	.	8a-/J)	.	8ff\J)	.	.	.	.	8c\J	.	.	.	.	.	.	.	.	.	.	.	.	8a-\J	.	8ff\J)	.
=34	=34	=34	=34	=34	=34	=34	=34	=34	=34	=34	=34	=34	=34	=34	=34	=34	=34	=34	=34	=34	=34	=34	=34	=34	=34
!	!	!	!	!	!	!	!	!	!	!	!	!	!	!	!	!	!	!	!	!	!	!LO:LB:g=original	!	!	!
2.ryy	2.ryy	8r	.	8r	.	(2B-\	De-	.	2.B-\	De-	.	(4g\	De-	.	(4ee-\	De-	.	4e-/	.	4ee-\	.	8r	.	8r	.
.	.	8g/|<	.	8ee-\|>	.	.	.	.	.	.	.	.	.	.	.	.	.	.	.	.	.	8g\|>	.	8ee-\|>	.
!	!	!	!	!	!	!	!	!	!	!	!	!LO:SIC:v:s=4a-\	!	!	!	!	!	!	!	!	!	!	!	!	!
.	.	8r	.	8r	.	.	.	.	.	.	.	4a\	.	.	4ff\	.	.	4r	.	4r	.	8r	.	8r	.
.	.	8a-/|<	.	8ff\|>	.	.	.	.	.	.	.	.	.	.	.	.	.	.	.	.	.	8a-\|>	.	8ff\|>	.
.	.	8r	.	8r	.	4BB-/)	.	.	.	.	.	4f\)	.	.	4dd\)	.	.	4b-/	.	4ff\	.	8r	.	8r	.
.	.	8f/|<	.	8dd\|>	.	.	.	.	.	.	.	.	.	.	.	.	.	.	.	.	.	8f/|>	.	8dd\|>	.
=35	=35	=35	=35	=35	=35	=35	=35	=35	=35	=35	=35	=35	=35	=35	=35	=35	=35	=35	=35	=35	=35	=35	=35	=35	=35
!	!	!LO:TX:t=P:problem:mixed beam	!	!LO:LB:g=original	!	!	!	!	!	!	!	!	!	!	!	!	!	!	!	!	!	!	!	!LO:LB:g=original	!
2.ryy	2.ryy	8g/L	.	8ee-\L|>	.	4E-\	-i	.	4B-\	-i	.	4g\	-i	.	4ee-\	-i	.	4ee-\	.	4gg\	.	4g/	.	(8ee-\L	.
.	.	8gg\J	.	(8bb-\	.	.	.	.	.	.	.	.	.	.	.	.	.	.	.	.	.	.	.	8bb-\)	.
.	.	(8cc\L	.	8aa-\	.	4r	.	.	4r	.	.	4r	.	.	4r	.	.	4r	.	4r	.	(8cc\L	.	8aa-\|>	.
!	!	!	!	!	!	!	!	!	!	!	!	!	!	!	!	!	!	!	!	!	!	!LO:TX:t=P:problem:korekta łuku	!	!	!
.	.	8b-\)	.	8gg\)	.	.	.	.	.	.	.	.	.	.	.	.	.	.	.	.	.	8b-\)	.	8gg\|>	.
.	.	8a-\|>	.	8ff\|>	.	4r	.	.	4r	.	.	4r	.	.	4r	.	.	4r	.	4r	.	8a-\|>	.	8ff\|>	.
.	.	8g\J|>	.	8ee-\J|>	.	.	.	.	.	.	.	.	.	.	.	.	.	.	.	.	.	8g\J|>	.	8ee-\J|>	.
=36	=36	=36	=36	=36	=36	=36	=36	=36	=36	=36	=36	=36	=36	=36	=36	=36	=36	=36	=36	=36	=36	=36	=36	=36	=36
!	!	!	!	!	!	!	!	!	!	!	!	!LO:LB:g=original	!	!	!	!	!	!	!	!	!	!	!	!	!
2.ryy	2.ryy	(16f/LL	.	(16dd\LL	.	(4BB-/	qui	.	2.B-\	qui	.	2.f\	qui	.	2.dd\	qui	.	2.b-/	.	2.ff\	.	2.f/	.	2.dd\	.
.	.	16a-/	.	16b-\JJ)	.	.	.	.	.	.	.	.	.	.	.	.	.	.	.	.	.	.	.	.	.
.	.	(16f/)	.	(32cc\LLL	.	.	.	.	.	.	.	.	.	.	.	.	.	.	.	.	.	.	.	.	.
.	.	.	.	32b-\	.	.	.	.	.	.	.	.	.	.	.	.	.	.	.	.	.	.	.	.	.
.	.	16a-/JJ)	.	32an\	.	.	.	.	.	.	.	.	.	.	.	.	.	.	.	.	.	.	.	.	.
.	.	.	.	32b-\JJJ)	.	.	.	.	.	.	.	.	.	.	.	.	.	.	.	.	.	.	.	.	.
*	*	*tremolo	*	*	*	*	*	*	*	*	*	*	*	*	*	*	*	*	*	*	*	*	*	*	*
.	.	(16f/LL	.	16r	.	4B-\	.	.	.	.	.	.	.	.	.	.	.	.	.	.	.	.	.	.	.
.	.	16a-/	.	16b-\LL|>	.	.	.	.	.	.	.	.	.	.	.	.	.	.	.	.	.	.	.	.	.
.	.	16f/	.	(16dd\	.	.	.	.	.	.	.	.	.	.	.	.	.	.	.	.	.	.	.	.	.
.	.	16a-/	.	16b-\JJ)	.	.	.	.	.	.	.	.	.	.	.	.	.	.	.	.	.	.	.	.	.
.	.	16f/	.	16r	.	4A-\)	.	.	.	.	.	.	.	.	.	.	.	.	.	.	.	.	.	.	.
.	.	16a-/	.	16b-\LL|>	.	.	.	.	.	.	.	.	.	.	.	.	.	.	.	.	.	.	.	.	.
.	.	16f/	.	(16ff\	.	.	.	.	.	.	.	.	.	.	.	.	.	.	.	.	.	.	.	.	.
.	.	16a-/JJ)	.	16b-\JJ)	.	.	.	.	.	.	.	.	.	.	.	.	.	.	.	.	.	.	.	.	.
*	*	*Xtremolo	*	*	*	*	*	*	*	*	*	*	*	*	*	*	*	*	*	*	*	*	*	*	*
=37	=37	=37	=37	=37	=37	=37	=37	=37	=37	=37	=37	=37	=37	=37	=37	=37	=37	=37	=37	=37	=37	=37	=37	=37	=37
2.ryy	2.ryy	(16g/LL	.	(16ee-\LL	.	4G\	tel-	.	4B-\	tol-	.	4g\	tol-	.	4ee-\	tol-	.	2.ee-\	.	2.gg\	.	2.g/	.	2.ee-\	.
.	.	16b-/	.	16b-\JJ)	.	.	.	.	.	.	.	.	.	.	.	.	.	.	.	.	.	.	.	.	.
.	.	(16g/)	.	(32cc\LLL	.	.	.	.	.	.	.	.	.	.	.	.	.	.	.	.	.	.	.	.	.
.	.	.	.	32b-\	.	.	.	.	.	.	.	.	.	.	.	.	.	.	.	.	.	.	.	.	.
.	.	16b-/JJ)	.	32an\	.	.	.	.	.	.	.	.	.	.	.	.	.	.	.	.	.	.	.	.	.
.	.	.	.	32b-\JJJ)	.	.	.	.	.	.	.	.	.	.	.	.	.	.	.	.	.	.	.	.	.
*	*	*tremolo	*	*	*	*	*	*	*	*	*	*	*	*	*	*	*	*	*	*	*	*	*	*	*
.	.	(16g/LL	.	16r	.	4G\	-lis	.	4B-\	-lis	.	4g\	-lis	.	4ee-\	-lis	.	.	.	.	.	.	.	.	.
.	.	16b-/	.	16b-\LL|>	.	.	.	.	.	.	.	.	.	.	.	.	.	.	.	.	.	.	.	.	.
.	.	16g/	.	(16ee-\	.	.	.	.	.	.	.	.	.	.	.	.	.	.	.	.	.	.	.	.	.
.	.	16b-/	.	16b-\JJ)	.	.	.	.	.	.	.	.	.	.	.	.	.	.	.	.	.	.	.	.	.
!	!	!	!	!	!	!LO:LB:g=original	!	!	!	!	!	!	!	!	!	!	!	!	!	!	!	!	!	!	!
.	.	16g/	.	16r	.	4E-\	pec-	.	4B-\	pec-	.	4g\	pec-	.	4ee-\	pec-	.	.	.	.	.	.	.	.	.
.	.	16b-/	.	16b-\LL|>	.	.	.	.	.	.	.	.	.	.	.	.	.	.	.	.	.	.	.	.	.
.	.	16g/	.	(16gg\	.	.	.	.	.	.	.	.	.	.	.	.	.	.	.	.	.	.	.	.	.
.	.	16b-/JJ)	.	16b-\JJ)	.	.	.	.	.	.	.	.	.	.	.	.	.	.	.	.	.	.	.	.	.
*	*	*Xtremolo	*	*	*	*	*	*	*	*	*	*	*	*	*	*	*	*	*	*	*	*	*	*	*
=38	=38	=38	=38	=38	=38	=38	=38	=38	=38	=38	=38	=38	=38	=38	=38	=38	=38	=38	=38	=38	=38	=38	=38	=38	=38
!	!	!LO:LB:g=original	!	!	!	!	!	!	!LO:LB:g=original	!	!	!LO:SIC:v:s=(2a-\	!	!	!LO:LB:g=original	!	!	!LO:LB:g=original	!	!	!	!	!	!	!
2.ryy	2.ryy	(16a-\LL	.	(16ff\LL	.	(>2D/	-ca-	.	2.B-\	-ca-	.	(2a\	-ca-	.	(2ff\	-ca-	.	2.b-/	.	2.ff\	.	2ff\	.	2aa-\	.
.	.	16b-\	.	16b-\JJ)	.	.	.	.	.	.	.	.	.	.	.	.	.	.	.	.	.	.	.	.	.
.	.	(16a-\)	.	(32cc\LLL	.	.	.	.	.	.	.	.	.	.	.	.	.	.	.	.	.	.	.	.	.
.	.	.	.	32b-\	.	.	.	.	.	.	.	.	.	.	.	.	.	.	.	.	.	.	.	.	.
.	.	16b-\JJ)	.	32an\	.	.	.	.	.	.	.	.	.	.	.	.	.	.	.	.	.	.	.	.	.
.	.	.	.	32b-\JJJ)	.	.	.	.	.	.	.	.	.	.	.	.	.	.	.	.	.	.	.	.	.
*	*	*tremolo	*	*	*	*	*	*	*	*	*	*	*	*	*	*	*	*	*	*	*	*	*	*	*
!	!	!	!	!LO:LB:g=original	!	!	!	!	!	!	!	!	!	!	!	!	!	!	!	!	!	!	!	!	!
.	.	(16a-\LL	.	(16cc\LL	.	.	.	.	.	.	.	.	.	.	.	.	.	.	.	.	.	.	.	.	.
.	.	16b-\	.	16b-\	.	.	.	.	.	.	.	.	.	.	.	.	.	.	.	.	.	.	.	.	.
.	.	16a-\	.	16an\	.	.	.	.	.	.	.	.	.	.	.	.	.	.	.	.	.	.	.	.	.
.	.	16b-\	.	16b-\JJ)	.	.	.	.	.	.	.	.	.	.	.	.	.	.	.	.	.	.	.	.	.
.	.	16a-\	.	16r	.	4BB-/)	.	.	.	.	.	4f\)	.	.	4dd\)	.	.	.	.	.	.	4dd\	.	4ff\	.
.	.	16b-\	.	16b-\LL|>	.	.	.	.	.	.	.	.	.	.	.	.	.	.	.	.	.	.	.	.	.
.	.	16a-\	.	(16aa-\	.	.	.	.	.	.	.	.	.	.	.	.	.	.	.	.	.	.	.	.	.
.	.	16b-\JJ)	.	16b-\JJ)	.	.	.	.	.	.	.	.	.	.	.	.	.	.	.	.	.	.	.	.	.
*	*	*Xtremolo	*	*	*	*	*	*	*	*	*	*	*	*	*	*	*	*	*	*	*	*	*	*	*
=39	=39	=39	=39	=39	=39	=39	=39	=39	=39	=39	=39	=39	=39	=39	=39	=39	=39	=39	=39	=39	=39	=39	=39	=39	=39
2.ryy	2.ryy	(16a-/LL	.	(16aa-\LL	.	4E-\	-ta	.	4B-\	-ta	.	4g\	-ta	.	4ee-\	-ta	.	4e-/	.	4ee-\	.	4ee-\	.	4gg\	.
.	.	16g/)	.	16gg\)	.	.	.	.	.	.	.	.	.	.	.	.	.	.	.	.	.	.	.	.	.
.	.	(16g/	.	(16gg\	.	.	.	.	.	.	.	.	.	.	.	.	.	.	.	.	.	.	.	.	.
.	.	16f/JJ)	.	16ff\JJ)	.	.	.	.	.	.	.	.	.	.	.	.	.	.	.	.	.	.	.	.	.
.	.	(16f/LL	.	(16ff\LL	.	4r	.	.	4r	.	.	4r	.	.	4r	.	.	4r	.	4r	.	4r	.	4r	.
.	.	16e-/)	.	16ee-\)	.	.	.	.	.	.	.	.	.	.	.	.	.	.	.	.	.	.	.	.	.
.	.	(16e-/	.	(16ee-\	.	.	.	.	.	.	.	.	.	.	.	.	.	.	.	.	.	.	.	.	.
.	.	16d/JJ)	.	16dd\JJ)	.	.	.	.	.	.	.	.	.	.	.	.	.	.	.	.	.	.	.	.	.
.	.	(16d/LL	.	(16dd\LL	.	4r	.	.	4r	.	.	4r	.	.	4r	.	.	4r	.	4r	.	4r	.	4r	.
.	.	16e-/)	.	16ee-\)	.	.	.	.	.	.	.	.	.	.	.	.	.	.	.	.	.	.	.	.	.
.	.	(16g/	.	16gg\|>	.	.	.	.	.	.	.	.	.	.	.	.	.	.	.	.	.	.	.	.	.
.	.	16e-/JJ)	.	16ee-\JJ|>	.	.	.	.	.	.	.	.	.	.	.	.	.	.	.	.	.	.	.	.	.
=40	=40	=40	=40	=40	=40	=40	=40	=40	=40	=40	=40	=40	=40	=40	=40	=40	=40	=40	=40	=40	=40	=40	=40	=40	=40
!	!	!	!LO:DY:a:t=pia&colon;	!	!LO:DY:t=piano	!	!	!LO:DY:a:color=red:t=pia	!	!	!LO:DY:a:color=red:t=pia	!	!	!LO:DY:a:color=red:t=pia	!	!	!LO:DY:b:color=red:t=pia	!	!LO:DY:t=pia:rj	!LO:LB:g=original	!LO:DY:t=pia	!	!LO:DY:t=pia	!	!LO:DY:t=pia
2.ryy	2.ryy	(16a-\LL	p	16dd/LL|<	p	(4BB-/	pec-	p	2.B-\	pec-	p	2.f\	pec-	p	2.dd\	pec-	p	2.b-/	p	2.ff\	p	2.f/	p	2.dd\	p
.	.	16b-\	.	16b-/|<	.	.	.	.	.	.	.	.	.	.	.	.	.	.	.	.	.	.	.	.	.
.	.	(16a-\)	.	16f/	.	.	.	.	.	.	.	.	.	.	.	.	.	.	.	.	.	.	.	.	.
.	.	16b-\JJ)	.	16d/JJ	.	.	.	.	.	.	.	.	.	.	.	.	.	.	.	.	.	.	.	.	.
*	*	*tremolo	*	*	*	*	*	*	*	*	*	*	*	*	*	*	*	*	*	*	*	*	*	*	*
!	!	!	!	!LO:TX:t=P:problem:mixed beam	!	!	!	!	!	!	!	!	!	!	!	!	!	!	!	!	!	!	!	!	!
.	.	(16a-\LL	.	16B-/LL	.	4B-\	.	.	.	.	.	.	.	.	.	.	.	.	.	.	.	.	.	.	.
.	.	16b-\	.	16b-\|>	.	.	.	.	.	.	.	.	.	.	.	.	.	.	.	.	.	.	.	.	.
.	.	16a-\	.	16dd\|>	.	.	.	.	.	.	.	.	.	.	.	.	.	.	.	.	.	.	.	.	.
.	.	16b-\	.	16b-\JJ|>	.	.	.	.	.	.	.	.	.	.	.	.	.	.	.	.	.	.	.	.	.
.	.	16a-\	.	16r	.	4A-\)	.	.	.	.	.	.	.	.	.	.	.	.	.	.	.	.	.	.	.
.	.	16b-\	.	16b-\LL|>	.	.	.	.	.	.	.	.	.	.	.	.	.	.	.	.	.	.	.	.	.
.	.	16a-\	.	16ff\|>	.	.	.	.	.	.	.	.	.	.	.	.	.	.	.	.	.	.	.	.	.
.	.	16b-\JJ)	.	16b-\JJ|>	.	.	.	.	.	.	.	.	.	.	.	.	.	.	.	.	.	.	.	.	.
*	*	*Xtremolo	*	*	*	*	*	*	*	*	*	*	*	*	*	*	*	*	*	*	*	*	*	*	*
=41	=41	=41	=41	=41	=41	=41	=41	=41	=41	=41	=41	=41	=41	=41	=41	=41	=41	=41	=41	=41	=41	=41	=41	=41	=41
2.ryy	2.ryy	(16g\LL	.	16ee-/LL|<	.	2G\	-ca-	.	2B-\	-ca-	.	2g\	-ca-	.	2ee-\	-ca-	.	2.ee-\	.	2.gg\	.	2.g/	.	2.ee-\	.
.	.	16b-\)	.	16b-/|<	.	.	.	.	.	.	.	.	.	.	.	.	.	.	.	.	.	.	.	.	.
.	.	(16g\	.	16g/|<	.	.	.	.	.	.	.	.	.	.	.	.	.	.	.	.	.	.	.	.	.
.	.	16b-\JJ)	.	16e-/JJ|<	.	.	.	.	.	.	.	.	.	.	.	.	.	.	.	.	.	.	.	.	.
*	*	*tremolo	*	*	*	*	*	*	*	*	*	*	*	*	*	*	*	*	*	*	*	*	*	*	*
!	!	!	!	!LO:TX:t=P:problem:mixed beam	!	!	!	!	!	!	!	!	!	!	!	!	!	!	!	!	!	!	!	!	!
.	.	(16g\LL	.	16B-/LL|<	.	.	.	.	.	.	.	.	.	.	.	.	.	.	.	.	.	.	.	.	.
.	.	16b-\	.	16b-\|>	.	.	.	.	.	.	.	.	.	.	.	.	.	.	.	.	.	.	.	.	.
.	.	16g\	.	16ee-\|>	.	.	.	.	.	.	.	.	.	.	.	.	.	.	.	.	.	.	.	.	.
.	.	16b-\	.	16b-\JJ|>	.	.	.	.	.	.	.	.	.	.	.	.	.	.	.	.	.	.	.	.	.
!	!	!	!	!LO:LB:g=original	!	!	!	!	!	!	!	!	!	!	!	!	!	!	!	!	!	!	!	!	!
.	.	16g\	.	16r	.	4E-\	-ta	.	4B-\	-ta	.	4g\	-ta	.	4ee-\	-ta	.	.	.	.	.	.	.	.	.
.	.	16b-\	.	16b-\LL|>	.	.	.	.	.	.	.	.	.	.	.	.	.	.	.	.	.	.	.	.	.
.	.	16g\	.	16gg\|>	.	.	.	.	.	.	.	.	.	.	.	.	.	.	.	.	.	.	.	.	.
.	.	16b-\JJ)	.	16b-\JJ|>	.	.	.	.	.	.	.	.	.	.	.	.	.	.	.	.	.	.	.	.	.
*	*	*Xtremolo	*	*	*	*	*	*	*	*	*	*	*	*	*	*	*	*	*	*	*	*	*	*	*
=42	=42	=42	=42	=42	=42	=42	=42	=42	=42	=42	=42	=42	=42	=42	=42	=42	=42	=42	=42	=42	=42	=42	=42	=42	=42
!	!	!	!	!	!	!	!	!	!	!	!	!LO:SIC:v:s=(2a-\	!	!	!	!	!	!	!	!	!	!	!	!	!
2.ryy	2.ryy	16f/LL	.	16ff\LL|>	.	2.D\	mun-	.	2.B-\	mun-	.	(2a\	mun-	.	(2ff\	mun-	.	2b-/	.	2ff\	.	(2ff\	.	2aa-\	.
.	.	16b-/	.	16dd\|>	.	.	.	.	.	.	.	.	.	.	.	.	.	.	.	.	.	.	.	.	.
.	.	16f/	.	16b-\|>	.	.	.	.	.	.	.	.	.	.	.	.	.	.	.	.	.	.	.	.	.
.	.	16b-/JJ	.	16f\JJ|>	.	.	.	.	.	.	.	.	.	.	.	.	.	.	.	.	.	.	.	.	.
*	*	*tremolo	*	*	*	*	*	*	*	*	*	*	*	*	*	*	*	*	*	*	*	*	*	*	*
!	!	!	!	!LO:TX:t=P:problem:mixed beam	!	!	!	!	!	!	!	!	!	!	!	!	!	!	!	!	!	!	!	!	!
.	.	16f/LL	.	16B-/LL|<	.	.	.	.	.	.	.	.	.	.	.	.	.	.	.	.	.	.	.	.	.
.	.	16b-/	.	16b-\|>	.	.	.	.	.	.	.	.	.	.	.	.	.	.	.	.	.	.	.	.	.
.	.	16f/	.	16ff\|>	.	.	.	.	.	.	.	.	.	.	.	.	.	.	.	.	.	.	.	.	.
.	.	16b-/	.	16b-\JJ|>	.	.	.	.	.	.	.	.	.	.	.	.	.	.	.	.	.	.	.	.	.
.	.	16f/	.	16r	.	.	.	.	.	.	.	4f\)	.	.	4dd\)	.	.	4b-/	.	4ff\	.	4dd\)	.	4ff\	.
.	.	16b-/	.	16b-\LL|>	.	.	.	.	.	.	.	.	.	.	.	.	.	.	.	.	.	.	.	.	.
.	.	16f/	.	16aa-\|>	.	.	.	.	.	.	.	.	.	.	.	.	.	.	.	.	.	.	.	.	.
.	.	16b-/JJ	.	16b-\JJ|>	.	.	.	.	.	.	.	.	.	.	.	.	.	.	.	.	.	.	.	.	.
*	*	*Xtremolo	*	*	*	*	*	*	*	*	*	*	*	*	*	*	*	*	*	*	*	*	*	*	*
=43	=43	=43	=43	=43	=43	=43	=43	=43	=43	=43	=43	=43	=43	=43	=43	=43	=43	=43	=43	=43	=43	=43	=43	=43	=43
!	!	!	!	!	!	!	!	!	!	!	!	!	!	!	!	!	!	!	!	!	!	!	!	!	!LO:DY:t=forto
.	.	.	.	.	.	.	.	.	.	.	.	.	.	.	.	.	.	.	.	.	.	.	.	(<8qqaa-/	f
!	!	!	!LO:DY:t=forto:rj	!	!LO:DY:t=forto	!	!	!	!	!	!	!	!	!	!	!	!	!	!	!	!	!	!LO:DY:t=fort	!	!
2.ryy	2.ryy	(16a-/LL	f	(16aa-\LL	f	4E-\	-di	.	4B-\	-di	.	4g\	-di	.	4ee-\	-di	.	4g/	.	4ee-\	.	4ee-\	f	4gg\)	.
.	.	16g/)	.	16gg\)	.	.	.	.	.	.	.	.	.	.	.	.	.	.	.	.	.	.	.	.	.
.	.	16g'/	.	16gg'\	.	.	.	.	.	.	.	.	.	.	.	.	.	.	.	.	.	.	.	.	.
.	.	16g'/JJ	.	16gg'\JJ	.	.	.	.	.	.	.	.	.	.	.	.	.	.	.	.	.	.	.	.	.
.	.	.	.	.	.	.	.	.	.	.	.	.	.	.	.	.	.	.	.	.	.	.	.	(<8qqgg/	.
!	!	!LO:LB:g=original	!	!	!	!	!	!LO:DY:a:color=red:t=fort	!	!	!LO:DY:a:color=red:t=fort	!LO:SIC:v:s=4a-\	!	!LO:DY:b:color=red:t=fort	!	!	!LO:DY:b:color=red:t=fort	!	!	!	!	!	!	!	!
.	.	(16g/LL	.	(16gg\LL	.	4A-\	mi-	f	4B-\	mi-	f	4a\	mi-	f	4ff\	mi-	f	4r	.	4r	.	4a-\	.	4ff\)	.
.	.	16f/)	.	16ff\)	.	.	.	.	.	.	.	.	.	.	.	.	.	.	.	.	.	.	.	.	.
.	.	16f/|<	.	16ff'\	.	.	.	.	.	.	.	.	.	.	.	.	.	.	.	.	.	.	.	.	.
.	.	16f/JJ|<	.	16ff'\JJ	.	.	.	.	.	.	.	.	.	.	.	.	.	.	.	.	.	.	.	.	.
.	.	.	.	.	.	.	.	.	.	.	.	.	.	.	.	.	.	.	.	.	.	.	.	(<8qqff/	.
!	!	!	!	!	!	!	!	!	!	!	!	!	!	!	!	!	!	!	!LO:DY:t=fort	!	!LO:DY:t=fort	!	!	!	!
.	.	(16f/LL	.	(16ff\LL	.	4G\	-se-	.	4B-\	-se-	.	4g\	-se-	.	4ee-\	-se-	.	4g/	f	4ee-\	f	4g\	.	4ee-\)	.
.	.	16e-/)	.	16ee-\)	.	.	.	.	.	.	.	.	.	.	.	.	.	.	.	.	.	.	.	.	.
.	.	16e-/|<	.	16ee-'\	.	.	.	.	.	.	.	.	.	.	.	.	.	.	.	.	.	.	.	.	.
.	.	16e-/JJ|<	.	16ee-'\JJ	.	.	.	.	.	.	.	.	.	.	.	.	.	.	.	.	.	.	.	.	.
=44	=44	=44	=44	=44	=44	=44	=44	=44	=44	=44	=44	=44	=44	=44	=44	=44	=44	=44	=44	=44	=44	=44	=44	=44	=44
.	.	.	.	.	.	.	.	.	.	.	.	.	.	.	.	.	.	.	.	.	.	.	.	4qqee-/	.
2.ryy	2.ryy	(16e-/LL	.	(16ee-\LL	.	(4F\	-re-	.	2B-\	-re-	.	2f\	-re-	.	2dd\	-re-	.	2b-/	.	2ff\	.	2f/	.	2dd\	.
.	.	16d/)	.	16dd\)	.	.	.	.	.	.	.	.	.	.	.	.	.	.	.	.	.	.	.	.	.
.	.	16d'/	.	16dd\|>	.	.	.	.	.	.	.	.	.	.	.	.	.	.	.	.	.	.	.	.	.
.	.	16d'/JJ	.	16dd'\JJ	.	.	.	.	.	.	.	.	.	.	.	.	.	.	.	.	.	.	.	.	.
.	.	16r	.	16r	.	4BB-/)	.	.	.	.	.	.	.	.	.	.	.	.	.	.	.	.	.	.	.
.	.	16d/LL|<	.	16dd\LL|>	.	.	.	.	.	.	.	.	.	.	.	.	.	.	.	.	.	.	.	.	.
.	.	(16c/	.	(16cc\	.	.	.	.	.	.	.	.	.	.	.	.	.	.	.	.	.	.	.	.	.
.	.	16d/JJ)	.	16dd\JJ)	.	.	.	.	.	.	.	.	.	.	.	.	.	.	.	.	.	.	.	.	.
.	.	16r	.	16r	.	4E-\	-re	.	4B-\	-re	.	4g\	-re	.	4ee-\	-re	.	4ee-\	.	4gg\	.	4g/	.	4ee-\	.
.	.	16e-/LL|<	.	16ee-\LL|>	.	.	.	.	.	.	.	.	.	.	.	.	.	.	.	.	.	.	.	.	.
.	.	(16d/	.	(16dd\	.	.	.	.	.	.	.	.	.	.	.	.	.	.	.	.	.	.	.	.	.
.	.	16e-/JJ)	.	16ee-\JJ)	.	.	.	.	.	.	.	.	.	.	.	.	.	.	.	.	.	.	.	.	.
=45	=45	=45	=45	=45	=45	=45	=45	=45	=45	=45	=45	=45	=45	=45	=45	=45	=45	=45	=45	=45	=45	=45	=45	=45	=45
!	!	!	!	!LO:LB:g=original	!	!	!	!	!	!	!	!LO:LB:g=original	!	!	!	!	!	!	!	!	!	!	!	!	!
.	.	.	.	.	.	.	.	.	.	.	.	.	.	.	.	.	.	.	.	.	.	.	.	(<8qqgg/	.
2.ryy	2.ryy	(16g/LL	.	(16gg\LL	.	4r	.	.	4r	.	.	4r	.	.	4r	.	.	4r	.	4r	.	4a-/	.	4ff\)	.
.	.	16f/)	.	16ff\)	.	.	.	.	.	.	.	.	.	.	.	.	.	.	.	.	.	.	.	.	.
.	.	16f'/	.	16ff'\	.	.	.	.	.	.	.	.	.	.	.	.	.	.	.	.	.	.	.	.	.
.	.	16f'/JJ	.	16ff'\JJ	.	.	.	.	.	.	.	.	.	.	.	.	.	.	.	.	.	.	.	.	.
.	.	.	.	.	.	.	.	.	.	.	.	.	.	.	.	.	.	.	.	.	.	.	.	(<8qqff/	.
.	.	(16f/LL	.	(16ff\LL	.	4r	.	.	4r	.	.	4r	.	.	4r	.	.	4e-/	.	4gg\	.	4g/	.	4ee-\)	.
.	.	16e-/)	.	16ee-\)	.	.	.	.	.	.	.	.	.	.	.	.	.	.	.	.	.	.	.	.	.
.	.	16e-'/	.	16ee-'\	.	.	.	.	.	.	.	.	.	.	.	.	.	.	.	.	.	.	.	.	.
.	.	16e-'/JJ	.	16ee-'\JJ	.	.	.	.	.	.	.	.	.	.	.	.	.	.	.	.	.	.	.	.	.
.	.	.	.	.	.	.	.	.	.	.	.	.	.	.	.	.	.	.	.	.	.	.	.	(<8qqee-/	.
.	.	(16e-/LL	.	(16ee-\LL	.	(4F\	no-	.	[4B-\	no-	.	[4b-\	no-	.	4dd\	no-	.	4b-/	.	4ff\	.	4f/	.	4dd\)	.
.	.	16d/)	.	16dd\)	.	.	.	.	.	.	.	.	.	.	.	.	.	.	.	.	.	.	.	.	.
.	.	16d'/	.	16dd'\	.	.	.	.	.	.	.	.	.	.	.	.	.	.	.	.	.	.	.	.	.
.	.	16d'/JJ	.	16dd'\JJ	.	.	.	.	.	.	.	.	.	.	.	.	.	.	.	.	.	.	.	.	.
=46	=46	=46	=46	=46	=46	=46	=46	=46	=46	=46	=46	=46	=46	=46	=46	=46	=46	=46	=46	=46	=46	=46	=46	=46	=46
.	.	.	.	.	.	.	.	.	.	.	.	.	.	.	.	.	.	.	.	.	.	.	.	(<8qqdd/	.
!	!	!	!	!	!	!	!	!	!	!	!	!	!	!	!	!	!	!	!	!	!	!LO:LB:g=original	!	!	!
2.ryy	2.ryy	(16d/LL	.	(16dd\LL	.	4G\	.	.	2B-\]	.	.	2b-\]	.	.	4ee-\	.	.	4e-/	.	4ee-\	.	4g/	.	4ee-\)	.
.	.	16e-/)	.	16ee-\)	.	.	.	.	.	.	.	.	.	.	.	.	.	.	.	.	.	.	.	.	.
.	.	16e-'/	.	16ee-'\	.	.	.	.	.	.	.	.	.	.	.	.	.	.	.	.	.	.	.	.	.
.	.	16e-'/JJ	.	16ee-'\JJ	.	.	.	.	.	.	.	.	.	.	.	.	.	.	.	.	.	.	.	.	.
.	.	.	.	.	.	.	.	.	.	.	.	.	.	.	.	.	.	.	.	.	.	.	.	(<8qqee-/	.
.	.	(16e-/LL	.	(16ee-\LL	.	4D\)	.	.	.	.	.	.	.	.	4ff\	.	.	4B-/	.	4ff\	.	4d/	.	4ff\)	.
.	.	16f/)	.	16ff\)	.	.	.	.	.	.	.	.	.	.	.	.	.	.	.	.	.	.	.	.	.
.	.	16f'/	.	16ff'\	.	.	.	.	.	.	.	.	.	.	.	.	.	.	.	.	.	.	.	.	.
.	.	16f'/JJ	.	16ff'\JJ	.	.	.	.	.	.	.	.	.	.	.	.	.	.	.	.	.	.	.	.	.
.	.	.	.	.	.	.	.	.	.	.	.	.	.	.	.	.	.	.	.	.	.	.	.	(<8qqff/	.
.	.	(16f/LL	.	(16ff\LL	.	4E-\	-bis.	.	4B-\	-bis	.	4b-\	-bis	.	4gg\	-bis	.	4e-/	.	4gg\	.	4e-/	.	4gg\)	.
.	.	16g/)	.	16gg\)	.	.	.	.	.	.	.	.	.	.	.	.	.	.	.	.	.	.	.	.	.
.	.	16g/|<	.	16gg'\	.	.	.	.	.	.	.	.	.	.	.	.	.	.	.	.	.	.	.	.	.
.	.	16g/JJ|<	.	16gg'\JJ	.	.	.	.	.	.	.	.	.	.	.	.	.	.	.	.	.	.	.	.	.
=47	=47	=47	=47	=47	=47	=47	=47	=47	=47	=47	=47	=47	=47	=47	=47	=47	=47	=47	=47	=47	=47	=47	=47	=47	=47
!	!	!	!	!	!	!LO:LB:g=original	!	!	!LO:LB:g=original	!	!	!	!	!	!	!	!	!	!	!	!	!	!	!LO:LB:g=original	!
.	.	.	.	.	.	.	.	.	.	.	.	.	.	.	.	.	.	.	.	.	.	.	.	(<8qqgg/	.
2.ryy	2.ryy	(16g/LL	.	(16gg\LL	.	4r	.	.	4r	.	.	4r	.	.	4r	.	.	4r	.	4r	.	4a-/	.	4ff\)	.
.	.	16f/)	.	16ff\)	.	.	.	.	.	.	.	.	.	.	.	.	.	.	.	.	.	.	.	.	.
.	.	16f/|<	.	16ff'\	.	.	.	.	.	.	.	.	.	.	.	.	.	.	.	.	.	.	.	.	.
.	.	16f/JJ|<	.	16ff'\JJ	.	.	.	.	.	.	.	.	.	.	.	.	.	.	.	.	.	.	.	.	.
.	.	.	.	.	.	.	.	.	.	.	.	.	.	.	.	.	.	.	.	.	.	.	.	(<8qqff/	.
!	!	!LO:LB:g=original	!	!	!	!	!	!	!	!	!	!	!	!	!	!	!	!	!	!	!	!	!	!	!
.	.	(16f/LL	.	(16ff\LL	.	4r	.	.	4r	.	.	4r	.	.	4r	.	.	4e-/|<	.	4gg\	.	4g/	.	4ee-\)	.
.	.	16e-/)	.	16ee-\)	.	.	.	.	.	.	.	.	.	.	.	.	.	.	.	.	.	.	.	.	.
.	.	16e-/|<	.	16ee-'\	.	.	.	.	.	.	.	.	.	.	.	.	.	.	.	.	.	.	.	.	.
.	.	16e-/JJ|<	.	16ee-'\JJ	.	.	.	.	.	.	.	.	.	.	.	.	.	.	.	.	.	.	.	.	.
.	.	.	.	.	.	.	.	.	.	.	.	.	.	.	.	.	.	.	.	.	.	.	.	(<8qqee-/	.
.	.	(16e-/LL	.	(16ee-\LL	.	8F\	mi-	.	8B-\	mi-	.	8b-\	mi-	.	8dd\	mi-	.	4b-/|<	.	4ff\	.	4f/	.	4dd\)	.
.	.	16d/)	.	16dd\)	.	.	.	.	.	.	.	.	.	.	.	.	.	.	.	.	.	.	.	.	.
.	.	16d/|<	.	16dd'\	.	8F\	-se-	.	8B-\	-se-	.	8b-\	-se-	.	8dd\	-se-	.	.	.	.	.	.	.	.	.
.	.	16d/JJ|<	.	16dd'\JJ	.	.	.	.	.	.	.	.	.	.	.	.	.	.	.	.	.	.	.	.	.
=48	=48	=48	=48	=48	=48	=48	=48	=48	=48	=48	=48	=48	=48	=48	=48	=48	=48	=48	=48	=48	=48	=48	=48	=48	=48
.	.	.	.	.	.	.	.	.	.	.	.	.	.	.	.	.	.	.	.	.	.	.	.	(<8qqdd/	.
!	!	!	!	!	!	!	!	!	!	!	!	!	!	!	!LO:LB:g=original	!	!	!	!	!	!	!	!	!	!
2.ryy	2.ryy	(16d/LL	.	(16dd\LL	.	(4G\	-re-	.	2B-\	-re-	.	2b-\	-re-	.	(4ee-\	-re-	.	4e-/	.	4ee-\	.	4g/	.	4ee-\)	.
.	.	16e-/	.	16ee-\)	.	.	.	.	.	.	.	.	.	.	.	.	.	.	.	.	.	.	.	.	.
.	.	16e-'/)	.	16ee-'\	.	.	.	.	.	.	.	.	.	.	.	.	.	.	.	.	.	.	.	.	.
.	.	16e-'/JJ	.	16ee-'\JJ	.	.	.	.	.	.	.	.	.	.	.	.	.	.	.	.	.	.	.	.	.
.	.	.	.	.	.	.	.	.	.	.	.	.	.	.	.	.	.	.	.	.	.	.	.	(<8qqee-/	.
.	.	(16e-/LL	.	(16ee-\LL	.	4D\)	.	.	.	.	.	.	.	.	4ff\)	.	.	4B-/	.	4ff\	.	4d/	.	4ff\)	.
.	.	16f/)	.	16ff\)	.	.	.	.	.	.	.	.	.	.	.	.	.	.	.	.	.	.	.	.	.
.	.	16f/|<	.	16ff'\	.	.	.	.	.	.	.	.	.	.	.	.	.	.	.	.	.	.	.	.	.
.	.	16f/JJ|<	.	16ff'\JJ	.	.	.	.	.	.	.	.	.	.	.	.	.	.	.	.	.	.	.	.	.
.	.	.	.	.	.	.	.	.	.	.	.	.	.	.	.	.	.	.	.	.	.	.	.	(<8qqff/	.
.	.	(16f/LL	.	(16ff\LL	.	4E-\	-re	.	4B-\	-re	.	4b-\	-re	.	4gg\	-re	.	4e-/	.	4gg\	.	4e-/	.	4gg\)	.
.	.	16g/	.	16gg\)	.	.	.	.	.	.	.	.	.	.	.	.	.	.	.	.	.	.	.	.	.
.	.	16g/)|<	.	16gg'\	.	.	.	.	.	.	.	.	.	.	.	.	.	.	.	.	.	.	.	.	.
.	.	16g/JJ|<	.	16gg'\JJ	.	.	.	.	.	.	.	.	.	.	.	.	.	.	.	.	.	.	.	.	.
=49	=49	=49	=49	=49	=49	=49	=49	=49	=49	=49	=49	=49	=49	=49	=49	=49	=49	=49	=49	=49	=49	=49	=49	=49	=49
!	!	!	!	!LO:LB:g=original	!	!	!	!	!LO:SIC:v:s=(4A-/	!	!	!	!	!	!	!	!	!LO:LB:g=original	!	!	!	!	!	!	!
2.ryy	2.ryy	8a-/L|<	.	(16gg\LL	.	4A-\	no-	.	(4A/	no-	.	(4cc\	no-	.	(4ff\	no-	.	4r	.	4r	.	4a-\	.	(16gg\LL	.
.	.	.	.	16ff\)	.	.	.	.	.	.	.	.	.	.	.	.	.	.	.	.	.	.	.	16ff\)	.
.	.	(16cc/L	.	16aa-\|>	.	.	.	.	.	.	.	.	.	.	.	.	.	.	.	.	.	.	.	16aa-\|>	.
.	.	16a-/JJ)	.	16ff\JJ|>	.	.	.	.	.	.	.	.	.	.	.	.	.	.	.	.	.	.	.	16ff\JJ|>	.
.	.	8g/L|<	.	(16ff\LL	.	4B-\	.	.	4G/)	.	.	2b-\)	.	.	4ee-\	.	.	4ee-\	.	4gg\	.	(8g/L	.	(16ff\LL	.
.	.	.	.	16ee-\)	.	.	.	.	.	.	.	.	.	.	.	.	.	.	.	.	.	.	.	16ee-\)	.
.	.	(16b-/L	.	16gg\|>	.	.	.	.	.	.	.	.	.	.	.	.	.	.	.	.	.	16b-/L	.	16gg\|>	.
.	.	16g/JJ)	.	16ee-\JJ|>	.	.	.	.	.	.	.	.	.	.	.	.	.	.	.	.	.	16g/JJ)	.	16ee-\JJ|>	.
.	.	8f/L|<	.	(16ee-\LL	.	4BB-/	.	.	4F/	.	.	.	.	.	4dd\)	.	.	4b-/	.	4ff\	.	8f/L	.	(16ee-\LL	.
.	.	.	.	16dd\)	.	.	.	.	.	.	.	.	.	.	.	.	.	.	.	.	.	.	.	16dd\)	.
.	.	(16a-/L	.	16ff\|>	.	.	.	.	.	.	.	.	.	.	.	.	.	.	.	.	.	16a-/L	.	16ff\|>	.
.	.	16f/JJ)	.	16dd\JJ|>	.	.	.	.	.	.	.	.	.	.	.	.	.	.	.	.	.	16f/JJ	.	16dd\JJ|>	.
=50	=50	=50	=50	=50	=50	=50	=50	=50	=50	=50	=50	=50	=50	=50	=50	=50	=50	=50	=50	=50	=50	=50	=50	=50	=50
2.ryy	2.ryy	4g/	.	(8ee-\L	.	4E-\	-bis	.	4G/	-bis	.	4b-\	-bis	.	4ee-\	-bis	.	4g/	.	4ee-\	.	4g/	.	8ee-\L	.
.	.	.	.	8b-\J)	.	.	.	.	.	.	.	.	.	.	.	.	.	.	.	.	.	.	.	8b-\J	.
.	.	4ff\	.	4aa-\	.	4D\	mi-	.	4f\	mi-	.	4b-\	mi-	.	4aa-\	mi-	.	4b-/	.	4ff\	.	4ff\	.	4aa-\	.
.	.	4ee-\	.	4gg\	.	8E-\L	-se-	.	4e-\	-se-	.	4b-\	-se-	.	4gg\	-se-	.	4ee-\	.	4gg\	.	4ee-\	.	4gg\	.
.	.	.	.	.	.	8G\J	.	.	.	.	.	.	.	.	.	.	.	.	.	.	.	.	.	.	.
=51	=51	=51	=51	=51	=51	=51	=51	=51	=51	=51	=51	=51	=51	=51	=51	=51	=51	=51	=51	=51	=51	=51	=51	=51	=51
2.ryy	2.ryy	(4ee-\	.	(4gg\	.	4B-\	-re-	.	4e-\	-re-	.	4b-\	-re-	.	4gg\	-re-	.	4ee-\	.	4gg\	.	4ee-\	.	(4gg\	.
.	.	8dd\L)	.	8ff\L)	.	4BB-/	-re	.	4d\	-re	.	4b-\	-re	.	4ff\	-re	.	8b-/	.	8ff\	.	8dd\L	.	8ff\L)	.
!	!	!	!	!	!	!	!	!	!	!	!	!	!	!	!	!	!	!	!	!LO:LB:g=original	!	!	!	!	!
.	.	8b-\|>	.	8bb-\|>	.	.	.	.	.	.	.	.	.	.	.	.	.	8b-/L|<	.	8b-/L|<	.	8b-\|>	.	8bb-\|>	.
.	.	8g\|>	.	8gg\|>	.	4r	.	.	4r	.	.	4r	.	.	4r	.	.	8g/|<	.	8g/|<	.	8g\|>	.	8gg\|>	.
.	.	8e-\J|>	.	8ee-\J|>	.	.	.	.	.	.	.	.	.	.	.	.	.	8e-/J|<	.	8e-/J|<	.	8e-\J|>	.	8ee-\J|>	.
=52	=52	=52	=52	=52	=52	=52	=52	=52	=52	=52	=52	=52	=52	=52	=52	=52	=52	=52	=52	=52	=52	=52	=52	=52	=52
2.ryy	2.ryy	4b-\	.	4bb-\	.	4r	.	.	4r	.	.	4r	.	.	4r	.	.	4b-/	.	4b-/	.	4b-\	.	4bb-\	.
.	.	4d/	.	4b-\	.	4r	.	.	4r	.	.	4r	.	.	4r	.	.	4b-/	.	4ff\	.	4d/	.	4dd\	.
.	.	4d/	.	4b-\	.	4B-\	no-	.	4f\	no-	.	4d\	-no-	.	4b-\	no-	.	4b-/	.	4ff\	.	4d/	.	4dd\	.
=53	=53	=53	=53	=53	=53	=53	=53	=53	=53	=53	=53	=53	=53	=53	=53	=53	=53	=53	=53	=53	=53	=53	=53	=53	=53
!	!	!	!	!	!	!	!	!	!	!	!	!LO:LB:g=original	!	!	!	!	!	!	!	!	!	!	!	!	!
2.ryy	2.ryy	2d/	.	2b-\	.	2BB-/	-bis	.	2f\	-bis	.	2d\	-bis	.	2b-\	-bis	.	2b-/	.	2ff\	.	2d/	.	2dd\	.
.	.	4r	.	4r	.	4r	.	.	4r	.	.	4r	.	.	4r	.	.	4r	.	4r	.	4r	.	4r	.
!	!	!	!	!	!	!LO:TX:b:t=volti Citto Allegretto	!	!	!	!	!	!	!	!	!	!	!	!	!	!	!	!	!	!	!
=54	=54	=54||	=54||	=54||	=54||	=54	=54	=54	=54	=54	=54	=54||	=54||	=54||	=54||	=54||	=54||	=54	=54	=54	=54	=54||	=54||	=54||	=54||
*	*	*M3/8	*	*M3/8	*	*M3/8	*	*	*M3/8	*	*	*M3/8	*	*	*M3/8	*	*	*M3/8	*	*M3/8	*	*M3/8	*	*M3/8	*
!	!	!LO:LB:g=original	!	!	!	!LO:PB:g=original	!	!	!	!	!	!	!	!	!	!	!	!	!	!	!	!	!	!	!
!	!	!LO:TX:a:t=Allegretto	!LO:DY:t=pia	!LO:TX:a:t=Allegretto	!	!LO:TX:a:t=Allegretto	!	!LO:DY:a:color=red:t=pia	!LO:TX:a:t=Allegretto	!	!LO:DY:a:color=red:t=pia	!LO:TX:a:t=Allegretto	!	!LO:DY:b:color=red:t=pia	!LO:TX:a:t=Allegretto	!	!LO:DY:b:color=red:t=pia	!LO:TX:a:t=Allegretto	!LO:DY:t=piano	!LO:TX:a:t=Allegretto	!LO:DY:t=pia	!LO:TX:a:t=Allegretto	!LO:DY:t=pia	!LO:TX:a:t=Allegretto	!LO:DY:t=pia
4.ryy	4.ryy	8r	p	8r	.	4E-\	mi-	p	4B-\	mi-	p	4g\	mi-	p	4ee-\	mi-	p	4e-/	p	4ee-\	p	4g/	p	4ee-\	p
!	!	!	!	!	!LO:DY:t=pia	!	!	!	!	!	!	!	!	!	!	!	!	!	!	!	!	!	!	!	!
.	.	(8b-\L	.	(8gg\L	p	.	.	.	.	.	.	.	.	.	.	.	.	.	.	.	.	.	.	.	.
.	.	8g\J)	.	8ee-\J)	.	8r	.	.	8r	.	.	8r	.	.	8r	.	.	8r	.	8r	.	8r	.	8r	.
=55	=55	=55	=55	=55	=55	=55	=55	=55	=55	=55	=55	=55	=55	=55	=55	=55	=55	=55	=55	=55	=55	=55	=55	=55	=55
!	!	!	!	!	!	!	!	!	!	!	!	!LO:SIC:v:s=4a-\	!	!	!	!	!	!	!	!	!	!	!	!	!
4.ryy	4.ryy	8r	.	8r	.	4A-\	-se-	.	4c\	-se-	.	4a\	-se-	.	4ff\	-se-	.	4e-/	.	4ee-\	.	4a-\	.	4ff\	.
.	.	(8cc\L	.	(8aa-\L	.	.	.	.	.	.	.	.	.	.	.	.	.	.	.	.	.	.	.	.	.
!	!	!	!	!LO:SIC:v:t=custos ee	!	!	!	!	!	!	!	!	!	!	!	!	!	!	!	!	!	!	!	!	!
.	.	8a-\J)	.	8ff\J)	.	8r	.	.	8r	.	.	8r	.	.	8r	.	.	8r	.	8r	.	8r	.	8r	.
=56	=56	=56	=56	=56	=56	=56	=56	=56	=56	=56	=56	=56	=56	=56	=56	=56	=56	=56	=56	=56	=56	=56	=56	=56	=56
!	!	!	!LO:DY:t=forto	!LO:LB:g=original	!LO:DY:t=forto	!	!	!LO:DY:t=fort:color=red:b	!LO:LB:g=original	!	!LO:DY:b:t=fort:color=red	!	!	!LO:DY:b:rj:color=red:t=fort	!	!	!LO:DY:b:color=red:t=fort	!	!LO:DY:t=fort	!	!LO:DY:t=fort	!	!LO:DY:t=forto	!LO:LB:g=original	!LO:DY:t=forto
4.ryy	4.ryy	(16f/LL	f	(16ee-\LL	f	4B-\	-re-	f	4.f\	-re-	f	4.b-\	-re-	f	4.dd\	-re-	f	4b-/	f	4ff\	f	16f/LL	f	4dd\	f
.	.	16a-/	.	16dd\	.	.	.	.	.	.	.	.	.	.	.	.	.	.	.	.	.	16a-/	.	.	.
.	.	(16f/)	.	16cc\)	.	.	.	.	.	.	.	.	.	.	.	.	.	.	.	.	.	16f/	.	.	.
.	.	16a-/	.	16b-\|>	.	.	.	.	.	.	.	.	.	.	.	.	.	.	.	.	.	16a-/	.	.	.
.	.	(16f/)	.	16cc\|>	.	8BB-/	.	.	.	.	.	.	.	.	.	.	.	8b-/	.	8ff\	.	16f/	.	16cc\LL	.
.	.	16a-/JJ)	.	16dd\JJ|>	.	.	.	.	.	.	.	.	.	.	.	.	.	.	.	.	.	16a-/JJ	.	16dd\JJ	.
=57	=57	=57	=57	=57	=57	=57	=57	=57	=57	=57	=57	=57	=57	=57	=57	=57	=57	=57	=57	=57	=57	=57	=57	=57	=57
!	!	!	!	!	!	!	!	!	!	!	!	!	!	!	!	!	!	!	!	!	!	!LO:LB:g=original	!	!	!
4.ryy	4.ryy	(16e-/LL	.	16ee-\LL|>	.	4E-\	-re	.	4g\	-re	.	4b-\	-re	.	4ee-\	-re	.	4ee-\	.	4gg\	.	16e-/LL|<	.	16ee-\LL|>	.
.	.	16f/	.	16ff\|>	.	.	.	.	.	.	.	.	.	.	.	.	.	.	.	.	.	16f/|<	.	16ff\|>	.
.	.	16g/	.	16gg\|>	.	.	.	.	.	.	.	.	.	.	.	.	.	.	.	.	.	16g/|<	.	16gg\|>	.
.	.	16a-/J)	.	16aa-\J|>	.	.	.	.	.	.	.	.	.	.	.	.	.	.	.	.	.	16a-/J|<	.	16aa-\J|>	.
.	.	8b-/J|<	.	8bb-\J|>	.	8r	.	.	8r	.	.	8r	.	.	8r	.	.	8r	.	8r	.	8b-/J|<	.	8bb-\J|>	.
=58	=58	=58	=58	=58	=58	=58	=58	=58	=58	=58	=58	=58	=58	=58	=58	=58	=58	=58	=58	=58	=58	=58	=58	=58	=58
!	!	!	!LO:DY:t=pia	!	!	!	!	!LO:DY:a:color=red:t=pia:rj	!	!	!LO:DY:a:color=red:t=pia	!	!	!LO:DY:b:color=red:t=pia	!LO:LB:g=original	!	!LO:DY:b:color=red:t=pia	!	!LO:DY:a:t=pia	!	!LO:DY:t=pia	!	!	!	!LO:DY:t=pia
4.ryy	4.ryy	8r	p	8r	.	4E-\	no-	p	4B-\	no-	p	4g\	no-	p	4ee-\	no-	p	4e-/	p	4ee-\	p	4g/	.	4ee-\	p
!	!	!	!	!	!LO:DY:t=pia	!	!	!	!	!	!	!	!	!	!	!	!	!	!	!	!	!	!	!	!
.	.	(8b-\L	.	8gg\L	p	.	.	.	.	.	.	.	.	.	.	.	.	.	.	.	.	.	.	.	.
.	.	8g\J)	.	8ee-\J	.	8r	.	.	8r	.	.	8r	.	.	8r	.	.	8r	.	8r	.	8r	.	8r	.
=59	=59	=59	=59	=59	=59	=59	=59	=59	=59	=59	=59	=59	=59	=59	=59	=59	=59	=59	=59	=59	=59	=59	=59	=59	=59
!	!	!	!	!	!	!	!	!	!	!	!	!LO:SIC:v:s=4a-\	!	!	!	!	!	!	!	!	!	!	!	!	!
4.ryy	4.ryy	8r	.	8r	.	4A-\	-bis	.	4c\	-bis	.	4a\	-bis	.	4ff\	-bis	.	4e-/	.	4ee-\	.	4a-\	.	4ff\	.
.	.	(8cc\L	.	(8aa-\L	.	.	.	.	.	.	.	.	.	.	.	.	.	.	.	.	.	.	.	.	.
.	.	8a-\J)	.	8ff\J)	.	8r	.	.	8r	.	.	8r	.	.	8r	.	.	8r	.	8r	.	8r	.	8r	.
=60	=60	=60	=60	=60	=60	=60	=60	=60	=60	=60	=60	=60	=60	=60	=60	=60	=60	=60	=60	=60	=60	=60	=60	=60	=60
!	!	!	!LO:DY:t=forto	!	!LO:DY:t=forto	!	!	!LO:DY:b:color=red:t=fort:rj	!	!	!LO:DY:b:t=fort:color=red	!	!	!LO:DY:b:color=red:t=fort	!	!	!LO:DY:b:color=red:t=fort	!LO:LB:g=original	!LO:DY:t=forto	!	!LO:DY:t=fort	!	!	!	!LO:DY:t=forto
4.ryy	4.ryy	(16g/LL	f	8ee-\L|>	f	8G\L	no-	f	4.B-\	no-	f	8g\L	no-	f	8ee-\L	no-	f	8g/L	f	8ee-\L	f	8g/L	.	8ee-\L|>	f
.	.	16b-/)	.	.	.	.	.	.	.	.	.	.	.	.	.	.	.	.	.	.	.	.	.	.	.
!	!	!	!	!	!	!	!	!	!	!	!	!LO:SIC:v:s=8a-\	!	!	!	!	!	!	!	!	!	!	!	!	!
.	.	(16a-/	.	8ff\|>	.	8A-\	.	.	.	.	.	8a\	.	.	8ff\	.	.	8b-/	.	8ff\	.	8a-/	.	8ff\|>	.
.	.	16b-/)	.	.	.	.	.	.	.	.	.	.	.	.	.	.	.	.	.	.	.	.	.	.	.
.	.	(16f/	.	8dd\J|>	.	8B-\J	.	.	.	.	.	8f\J	.	.	8dd\J	.	.	8b-/J	.	8ff\J	.	8f/J	.	8dd\J|>	.
.	.	16a-/JJ)	.	.	.	.	.	.	.	.	.	.	.	.	.	.	.	.	.	.	.	.	.	.	.
=61	=61	=61	=61	=61	=61	=61	=61	=61	=61	=61	=61	=61	=61	=61	=61	=61	=61	=61	=61	=61	=61	=61	=61	=61	=61
*	*	*	*	*^	*	*	*	*	*	*	*	*	*	*	*	*	*	*	*	*	*	*	*	*	*
4.ryy	4.ryy	4g/	.	4ee-\	4ryy	.	4E-\	-bis	.	4B-\	-bis	.	4g\	-bis	.	4ee-\	-bis	.	8g/	.	8ee-\	.	8g/	.	8ee-\	.
.	.	.	.	.	.	.	.	.	.	.	.	.	.	.	.	.	.	.	8r	.	8r	.	8r	.	8r	.
!	!	!	!	!	!	!	!	!	!	!	!	!	!	!	!	!	!	!	!	!	!LO:TX:b:t=Solo	!	!	!	!LO:TX:b:t=Solo	!
!	!	!	!	!	!	!	!	!	!	!	!	!	!	!	!	!	!	!	!	!	!LO:TX:a:t=dolce	!	!	!	!LO:TX:a:t=dolce	!
.	.	8r	.	8rA	8b-/	.	8r	.	.	8r	.	.	8r	.	.	8r	.	.	8r	.	8b-/	.	8r	.	8b-\	.
=62	=62	=62	=62	=62	=62	=62	=62	=62	=62	=62	=62	=62	=62	=62	=62	=62	=62	=62	=62	=62	=62	=62	=62	=62	=62	=62
*	*	*^	*	*	*	*	*	*	*	*	*	*	*	*	*	*	*	*	*	*	*	*	*	*	*	*
*	*	*cue	*	*	*	*	*	*	*	*	*	*	*	*	*	*	*	*	*	*	*	*	*	*	*	*	*
!	!	!LO:TX:b:t=1	!	!	!LO:TX:b:t=1	!	!	!	!	!LO:DY:a:color=red:t=pia	!	!	!LO:DY:a:color=red:t=pia	!LO:SIC:v:s=4.a-\	!	!LO:DY:b:color=red:t=piano	!	!	!LO:DY:b:color=red:t=pia	!LO:TX:a:t=dolce Solo	!	!LO:TX:t=P:problem:mixed beam	!	!LO:TX:a:t=Solo	!	!	!
4.ryy	4.ryy	(8ff/L	4.r	.	4.rA	(8aa-/L	.	4.BB-/	mi-	p	4.B-\	mi-	p	4.a\	mi-	p	4.ff\	mi-	p	8B-/L	.	8B-/L	.	(16D/LL	.	(8aa-\L	.
.	.	.	.	.	.	.	.	.	.	.	.	.	.	.	.	.	.	.	.	.	.	.	.	16B-/	.	.	.
.	.	8dd/)	.	.	.	8ff/)	.	.	.	.	.	.	.	.	.	.	.	.	.	8b-/|<	.	8ff'\	.	(16F/)	.	8ff\)	.
!	!	!	!	!	!	!	!	!	!	!	!	!	!	!	!	!	!	!	!	!	!	!	!	!LO:TX:a:t=dolce	!	!	!
.	.	.	.	.	.	.	.	.	.	.	.	.	.	.	.	.	.	.	.	.	.	.	.	16B-/)	.	.	.
.	.	8dd/J	.	.	.	8ff|</J	.	.	.	.	.	.	.	.	.	.	.	.	.	8b-/J|<	.	8ff'\J	.	(16F/	.	8ff\J|>	.
.	.	.	.	.	.	.	.	.	.	.	.	.	.	.	.	.	.	.	.	.	.	.	.	16B-/JJ)	.	.	.
=63	=63	=63	=63	=63	=63	=63	=63	=63	=63	=63	=63	=63	=63	=63	=63	=63	=63	=63	=63	=63	=63	=63	=63	=63	=63	=63	=63
!	!	!LO:TX:t=Clarinetto:rj	!	!	!	!	!	!	!	!	!	!	!	!	!	!	!	!	!	!	!	!	!	!	!	!	!
!	!	!LO:TX:b:t=2	!	!	!LO:TX:b:t=2	!	!	!	!	!	!	!	!	!	!	!	!	!	!	!LO:TX:t=P:problem:mixed beam	!	!LO:TX:t=P:problem:mixed beam	!	!	!	!	!
4.ryy	4.ryy	(8ee-/L	4.r	.	4.rA	(8gg/L	.	4.E-\	-se-	.	4.B-\	-se-	.	4.g\	-se-	.	4.ee-\	-se-	.	8e-/L	.	8e-'/L	.	(16E-/LL	.	(8gg\L	.
.	.	.	.	.	.	.	.	.	.	.	.	.	.	.	.	.	.	.	.	.	.	.	.	16B-/	.	.	.
.	.	8g/)	.	.	.	8ee-/)	.	.	.	.	.	.	.	.	.	.	.	.	.	8ee-\|>	.	8gg'\	.	(16G/)	.	8ee-\)	.
.	.	.	.	.	.	.	.	.	.	.	.	.	.	.	.	.	.	.	.	.	.	.	.	16B-/)	.	.	.
.	.	8g/J	.	.	.	8ee-|</J	.	.	.	.	.	.	.	.	.	.	.	.	.	8ee-\J|>	.	8gg'\J	.	(16G/	.	8ee-\J|>	.
.	.	.	.	.	.	.	.	.	.	.	.	.	.	.	.	.	.	.	.	.	.	.	.	16B-/JJ)	.	.	.
=64	=64	=64	=64	=64	=64	=64	=64	=64	=64	=64	=64	=64	=64	=64	=64	=64	=64	=64	=64	=64	=64	=64	=64	=64	=64	=64	=64
!	!	!	!	!	!	!	!	!	!	!	!	!	!	!	!	!	!	!	!	!	!	!LO:LB:g=original	!	!	!	!	!
!	!	!LO:TX:b:t=3	!	!	!LO:TX:b:t=3	!	!	!	!	!	!	!	!	!	!	!	!	!	!	!	!	!LO:TX:t=P:problem:mixed beam	!	!	!	!	!
4.ryy	4.ryy	8a-/L	4.r	.	4.rA	(8dd/L	.	4B-\	-re-	.	4.B-\	-re-	.	4.f\	-re-	.	4.dd\	-re-	.	8B-/L	.	8B-'/L	.	(16F/LL	.	(8dd\L	.
.	.	.	.	.	.	.	.	.	.	.	.	.	.	.	.	.	.	.	.	.	.	.	.	16B-/	.	.	.
.	.	8f/	.	.	.	8b-/)	.	.	.	.	.	.	.	.	.	.	.	.	.	8b-/|<	.	8ff'\	.	(16A-/)	.	8b-\)	.
.	.	.	.	.	.	.	.	.	.	.	.	.	.	.	.	.	.	.	.	.	.	.	.	16B-/	.	.	.
.	.	8f/J	.	.	.	8b-|</J	.	8BB-/	.	.	.	.	.	.	.	.	.	.	.	8b-/J|<	.	8ff'\J	.	(16A-/)	.	8b-\J|>	.
.	.	.	.	.	.	.	.	.	.	.	.	.	.	.	.	.	.	.	.	.	.	.	.	16B-/JJ)	.	.	.
=65	=65	=65	=65	=65	=65	=65	=65	=65	=65	=65	=65	=65	=65	=65	=65	=65	=65	=65	=65	=65	=65	=65	=65	=65	=65	=65	=65
!	!	!LO:LB:g=original	!LO:LB:g=original	!	!	!	!	!	!	!	!	!	!	!	!	!	!	!	!	!	!	!	!	!	!	!	!
!	!	!LO:TX:b:t=4	!	!	!LO:TX:b:t=4	!	!	!	!	!	!	!	!	!LO:LB:g=original	!	!	!	!	!	!	!	!LO:TX:t=P:problem:mixed beam	!	!	!	!	!
4.ryy	4.ryy	8g/L	4.r	.	4.rA	8ee-/L	.	4E-\	-re	.	4B-\	-re	.	4g\	-re	.	4ee-\	-re	.	8ee-\L|>	.	8e-'/L	.	(16G/LL	.	8ee-\L	.
.	.	.	.	.	.	.	.	.	.	.	.	.	.	.	.	.	.	.	.	.	.	.	.	16B-/)	.	.	.
.	.	8g/	.	.	.	(16ee-/L	.	.	.	.	.	.	.	.	.	.	.	.	.	16b-\L|>	.	8ee-'\	.	(16E-/	.	(16ee-\L	.
.	.	.	.	.	.	16dd/	.	.	.	.	.	.	.	.	.	.	.	.	.	16g\JJ|>	.	.	.	16B-/	.	16dd\	.
.	.	8b-/J	.	.	.	16ee-/	.	8r	.	.	8r	.	.	8r	.	.	8r	.	.	8e-/|<	.	8ee-'\J	.	(16E-/)	.	16ee-\	.
.	.	.	.	.	.	16gg/JJ)	.	.	.	.	.	.	.	.	.	.	.	.	.	.	.	.	.	16B-/JJ)	.	16gg\JJ)	.
=66	=66	=66	=66	=66	=66	=66	=66	=66	=66	=66	=66	=66	=66	=66	=66	=66	=66	=66	=66	=66	=66	=66	=66	=66	=66	=66	=66
!	!	!LO:TX:b:t=5	!	!	!LO:TX:b:t=5	!	!	!LO:LB:g=original	!	!	!	!	!	!	!	!	!	!	!	!	!	!LO:TX:t=P:problem:mixed beam	!	!	!	!	!
4.ryy	4.ryy	8ff/L	4.r	.	4.rA	(8aa-/L	.	8BB-/	mi-	.	4B-\	mi-	.	4f\	mi-	.	4dd\	mi-	.	8B-/L|<	.	8B-'/L	.	(16D/LL	.	(8aa-\L	.
.	.	.	.	.	.	.	.	.	.	.	.	.	.	.	.	.	.	.	.	.	.	.	.	16B-/	.	.	.
.	.	8dd/	.	.	.	8ff/)	.	4BB-/	-se-	.	.	.	.	.	.	.	.	.	.	8b-/|<	.	8ff'\	.	(16F/)	.	8ff\)	.
.	.	.	.	.	.	.	.	.	.	.	.	.	.	.	.	.	.	.	.	.	.	.	.	16B-/	.	.	.
.	.	8dd/J	.	.	.	8ff'/J	.	.	.	.	8B-\	-se-	.	8f\	-se-	.	8dd\	-se-	.	8b-/J|<	.	8ff'\J	.	(16F/)	.	8ff\J|>	.
.	.	.	.	.	.	.	.	.	.	.	.	.	.	.	.	.	.	.	.	.	.	.	.	16B-/JJ)	.	.	.
=67	=67	=67	=67	=67	=67	=67	=67	=67	=67	=67	=67	=67	=67	=67	=67	=67	=67	=67	=67	=67	=67	=67	=67	=67	=67	=67	=67
!	!	!LO:TX:b:t=6	!	!	!LO:LB:g=original	!LO:LB:g=original	!	!	!	!	!	!	!	!	!	!	!	!	!	!LO:TX:t=P:problem:mixed beam	!	!LO:TX:t=P:problem:mixed beam	!	!LO:LB:g=original	!	!LO:LB:g=original	!
4.ryy	4.ryy	8ee-/L	4.r	.	4.rcyy	(8gg/L	.	4E-\	-re-	.	4B-\	-re-	.	4g\	-re-	.	4ee-\	-re-	.	8e-/L	.	8e-/L	.	(16E-/LL	.	(8gg\L	.
.	.	.	.	.	.	.	.	.	.	.	.	.	.	.	.	.	.	.	.	.	.	.	.	16B-/	.	.	.
.	.	8g/	.	.	.	8ee-/)	.	.	.	.	.	.	.	.	.	.	.	.	.	8ee-\	.	8gg'\	.	(16G/)	.	8ee-\)	.
.	.	.	.	.	.	.	.	.	.	.	.	.	.	.	.	.	.	.	.	.	.	.	.	16B-/)	.	.	.
.	.	8g/J	.	.	.	8ee-|</J	.	8E-\	-re	.	8B-\	-re	.	8g\	-re	.	8ee-\	-re	.	8ee-\J	.	8gg'\J	.	(16G/	.	8ee-\J|>	.
.	.	.	.	.	.	.	.	.	.	.	.	.	.	.	.	.	.	.	.	.	.	.	.	16B-/JJ)	.	.	.
*	*	*v	*v	*	*	*	*	*	*	*	*	*	*	*	*	*	*	*	*	*	*	*	*	*	*	*	*
*	*	*	*	*v	*v	*	*	*	*	*	*	*	*	*	*	*	*	*	*	*	*	*	*	*	*	*
=68	=68	=68	=68	=68	=68	=68	=68	=68	=68	=68	=68	=68	=68	=68	=68	=68	=68	=68	=68	=68	=68	=68	=68	=68	=68
*	*	*Xcue	*	*	*	*	*	*	*	*	*	*	*	*	*	*	*	*	*	*	*	*	*	*	*
!	!	!	!LO:DY:t=forto	!	!LO:DY:t=forto	!LO:TX:t=P:problem:mixed beam	!	!LO:DY:b:color=red:t=fort	!	!	!LO:DY:a:color=red:t=fort	!LO:SIC:v:s=8a-\L	!	!LO:DY:b:color=red:t=fort	!	!	!LO:DY:b:color=red:t=fort	!	!	!	!	!LO:TX:t=P:problem:mixed beam	!	!	!LO:DY:t=forto
4.ryy	4.ryy	32a-/LLL	f	32ff\LLL	f	8A-\L	no-	f	8c\	no-	f	8a\L	no-	f	8ff\L	no-	f	8r	.	8r	.	16A-/LL	.	8ff\L	f
.	.	32a-/	.	32ff\	.	.	.	.	.	.	.	.	.	.	.	.	.	.	.	.	.	.	.	.	.
!	!	!	!	!	!	!	!	!	!	!	!	!	!	!	!	!	!	!	!	!	!	!	!LO:DY:a:t=forto	!	!
.	.	32a-/	.	32ff\	.	.	.	.	.	.	.	.	.	.	.	.	.	.	.	.	.	16a-\JJ	f	.	.
.	.	32a-/JJJ	.	32ff\JJJ	.	.	.	.	.	.	.	.	.	.	.	.	.	.	.	.	.	.	.	.	.
*	*	*tremolo	*	*	*	*	*	*	*	*	*	*	*	*	*	*	*	*	*	*	*	*	*	*	*
*	*	*	*	*tremolo	*	*	*	*	*	*	*	*	*	*	*	*	*	*	*	*	*	*	*	*	*
!	!	!LO:TX:t=P:problem:LO:TREM:vis=4	!	!LO:TX:t=P:problem:LO:TREM:vis=4	!	!	!	!	!	!	!	!	!	!	!	!	!	!	!LO:DY:t=forto	!	!LO:DY:t=forto	!	!	!	!
.	.	32g/LLL	.	32ee-\LLL	.	8B-\	.	.	4B-\	.	.	8g\	.	.	8ee-\	.	.	8ee-\L	f	8gg\L	f	8g/L	.	8ee-\	.
.	.	32g/	.	32ee-\	.	.	.	.	.	.	.	.	.	.	.	.	.	.	.	.	.	.	.	.	.
.	.	32g/	.	32ee-\	.	.	.	.	.	.	.	.	.	.	.	.	.	.	.	.	.	.	.	.	.
.	.	32g/JJJ	.	32ee-\JJJ	.	.	.	.	.	.	.	.	.	.	.	.	.	.	.	.	.	.	.	.	.
!	!	!LO:TX:t=P:problem:LO:TREM:vis=4	!	!LO:TX:t=P:problem:LO:TREM:vis=4	!	!	!	!	!	!	!	!	!	!	!	!	!	!	!	!	!	!	!	!	!
.	.	32f/LLL	.	32dd\LLL	.	8BB-/J	.	.	.	.	.	8f\J	.	.	8dd\J	.	.	8b-\J	.	8ff\J	.	8f/J	.	8dd\J	.
.	.	32f/	.	32dd\	.	.	.	.	.	.	.	.	.	.	.	.	.	.	.	.	.	.	.	.	.
.	.	32f/	.	32dd\	.	.	.	.	.	.	.	.	.	.	.	.	.	.	.	.	.	.	.	.	.
.	.	32f/JJJ	.	32dd\JJJ	.	.	.	.	.	.	.	.	.	.	.	.	.	.	.	.	.	.	.	.	.
*	*	*Xtremolo	*	*Xtremolo	*	*	*	*	*	*	*	*	*	*	*	*	*	*	*	*	*	*	*	*	*
=69	=69	=69	=69	=69	=69	=69	=69	=69	=69	=69	=69	=69	=69	=69	=69	=69	=69	=69	=69	=69	=69	=69	=69	=69	=69
!	!	!LO:TX:t=P:problem:mixed beam	!	!	!	!	!	!	!LO:LB:g=original	!	!	!	!	!	!	!	!	!	!	!LO:TX:t=P:problem:mixed beam	!	!	!	!	!
4.ryy	4.ryy	8g/L	.	8ee-\L|>	.	4E-\	-bis	.	4B-\	-bis	.	4g\	-bis	.	4ee-\	-bis	.	4g/	.	8ee-\L	.	4g/	.	4ee-\	.
.	.	(8gg\	.	(8bb-\	.	.	.	.	.	.	.	.	.	.	.	.	.	.	.	8ee-\|>	.	.	.	.	.
.	.	8ee-\J)	.	8gg\J)	.	8r	.	.	8r	.	.	8r	.	.	8r	.	.	8r	.	8e-/J|<	.	8r	.	8r	.
=70	=70	=70	=70	=70	=70	=70	=70	=70	=70	=70	=70	=70	=70	=70	=70	=70	=70	=70	=70	=70	=70	=70	=70	=70	=70
!	!	!	!	!	!	!LO:TX:t=P:problem:mixed beam	!	!	!	!	!	!LO:SIC:v:s=8a-\L	!	!	!LO:LB:g=original	!	!	!	!	!	!	!	!	!	!
4.ryy	4.ryy	32a-/LLL	.	32ff\LLL	.	8A-\L	no-	.	8c\	no-	.	8a\L	no-	.	8ff\L	no-	.	8r	.	8r	.	8a-/L	.	8ff\L	.
.	.	32a-/	.	32ff\	.	.	.	.	.	.	.	.	.	.	.	.	.	.	.	.	.	.	.	.	.
.	.	32a-/	.	32ff\	.	.	.	.	.	.	.	.	.	.	.	.	.	.	.	.	.	.	.	.	.
.	.	32a-/JJJ	.	32ff\JJJ	.	.	.	.	.	.	.	.	.	.	.	.	.	.	.	.	.	.	.	.	.
*	*	*tremolo	*	*tremolo	*	*	*	*	*	*	*	*	*	*	*	*	*	*	*	*	*	*	*	*	*
!	!	!LO:TX:t=P:problem:LO:TREM:vis=4	!	!LO:TX:t=P:problem:LO:TREM:vis=4	!	!	!	!	!	!	!	!	!	!	!	!	!	!	!	!	!	!	!	!	!
.	.	32g/LLL	.	32ee-\LLL	.	8B-\	.	.	4B-\	.	.	8g\	.	.	8ee-\	.	.	8ee-\L	.	8gg\L	.	8g/	.	8ee-\	.
.	.	32g/	.	32ee-\	.	.	.	.	.	.	.	.	.	.	.	.	.	.	.	.	.	.	.	.	.
.	.	32g/	.	32ee-\	.	.	.	.	.	.	.	.	.	.	.	.	.	.	.	.	.	.	.	.	.
.	.	32g/JJJ	.	32ee-\JJJ	.	.	.	.	.	.	.	.	.	.	.	.	.	.	.	.	.	.	.	.	.
!	!	!LO:TX:t=P:problem:LO:TREM:vis=4	!	!LO:TX:t=P:problem:LO:TREM:vis=4	!	!	!	!	!	!	!	!	!	!	!	!	!	!	!	!	!	!	!	!	!
.	.	32f/LLL	.	32dd\LLL	.	8BB-/J	.	.	.	.	.	8f\J	.	.	8dd\J	.	.	8b-\J	.	8ff\J	.	8f/J	.	8dd\J	.
.	.	32f/	.	32dd\	.	.	.	.	.	.	.	.	.	.	.	.	.	.	.	.	.	.	.	.	.
.	.	32f/	.	32dd\	.	.	.	.	.	.	.	.	.	.	.	.	.	.	.	.	.	.	.	.	.
.	.	32f/JJJ	.	32dd\JJJ	.	.	.	.	.	.	.	.	.	.	.	.	.	.	.	.	.	.	.	.	.
*	*	*Xtremolo	*	*Xtremolo	*	*	*	*	*	*	*	*	*	*	*	*	*	*	*	*	*	*	*	*	*
=71	=71	=71	=71	=71	=71	=71	=71	=71	=71	=71	=71	=71	=71	=71	=71	=71	=71	=71	=71	=71	=71	=71	=71	=71	=71
!	!	!	!	!	!	!	!	!	!	!	!	!	!	!	!	!	!	!LO:LB:g=original	!	!	!	!	!	!	!
!	!	!LO:TX:t=P:problem:mixed beam	!	!	!	!	!	!	!	!	!	!	!	!	!	!	!	!LO:TX:t=P:problem:mixed beam	!	!LO:TX:t=P:problem:mixed beam	!	!LO:TX:t=P:problem:mixed beam	!	!	!
4.ryy	4.ryy	8g/L	.	8ee-\L|>	.	8E-\	-bis	.	4B-\	-bis	.	4g\	-bis	.	4ee-\	-bis	.	8g/L	.	8ee-\L	.	8g/L	.	8ee-\L	.
.	.	(8gg\	.	8bb-\	.	8r	.	.	.	.	.	.	.	.	.	.	.	8ee-\	.	8ee-\	.	8gg\	.	8bb-\	.
.	.	8ee-\J)	.	8gg\J	.	8r	.	.	8r	.	.	8r	.	.	8r	.	.	8e-/J	.	8e-/J	.	8ee-\J	.	8gg\J	.
=72	=72	=72	=72	=72	=72	=72	=72	=72	=72	=72	=72	=72	=72	=72	=72	=72	=72	=72	=72	=72	=72	=72	=72	=72	=72
!	!	!	!	!	!	!LO:TX:t=P:problem:mixed beam	!	!	!	!	!	!LO:SIC:v:s=8a-\L	!	!	!	!	!	!	!	!	!	!	!	!	!
4.ryy	4.ryy	32a-/LLL	.	32ff\LLL	.	8A-\L	no-	.	(8c\	no-	.	8a\L	no-	.	8ff\L	no-	.	8r	.	8r	.	8a-\L	.	8ff\L	.
.	.	32a-/	.	32ff\	.	.	.	.	.	.	.	.	.	.	.	.	.	.	.	.	.	.	.	.	.
.	.	32a-/	.	32ff\	.	.	.	.	.	.	.	.	.	.	.	.	.	.	.	.	.	.	.	.	.
.	.	32a-/JJJ	.	32ff\JJJ	.	.	.	.	.	.	.	.	.	.	.	.	.	.	.	.	.	.	.	.	.
*	*	*tremolo	*	*tremolo	*	*	*	*	*	*	*	*	*	*	*	*	*	*	*	*	*	*	*	*	*
!	!	!LO:TX:t=P:problem:LO:TREM:vis=4	!	!LO:TX:t=P:problem:LO:TREM:vis=4	!	!	!	!	!	!	!	!	!	!	!	!	!	!	!	!	!	!	!	!	!
.	.	32g/LLL	.	32ee-\LLL	.	8B-\	.	.	4B-\)	.	.	8g\	.	.	8ee-\	.	.	8ee-\L	.	8gg\L	.	8g\	.	8ee-\	.
.	.	32g/	.	32ee-\	.	.	.	.	.	.	.	.	.	.	.	.	.	.	.	.	.	.	.	.	.
.	.	32g/	.	32ee-\	.	.	.	.	.	.	.	.	.	.	.	.	.	.	.	.	.	.	.	.	.
.	.	32g/JJJ	.	32ee-\JJJ	.	.	.	.	.	.	.	.	.	.	.	.	.	.	.	.	.	.	.	.	.
!	!	!LO:TX:t=P:problem:LO:TREM:vis=4	!	!LO:TX:t=P:problem:LO:TREM:vis=4	!	!	!	!	!	!	!	!	!	!	!	!	!	!	!	!	!	!	!	!	!
.	.	32f/LLL	.	32dd\LLL	.	8BB-/J	.	.	.	.	.	8f\J	.	.	8dd\J	.	.	8b-\J	.	8ff\J	.	8f\J	.	8dd\J	.
.	.	32f/	.	32dd\	.	.	.	.	.	.	.	.	.	.	.	.	.	.	.	.	.	.	.	.	.
.	.	32f/	.	32dd\	.	.	.	.	.	.	.	.	.	.	.	.	.	.	.	.	.	.	.	.	.
.	.	32f/JJJ	.	32dd\JJJ	.	.	.	.	.	.	.	.	.	.	.	.	.	.	.	.	.	.	.	.	.
*	*	*	*	*Xtremolo	*	*	*	*	*	*	*	*	*	*	*	*	*	*	*	*	*	*	*	*	*
*	*	*Xtremolo	*	*	*	*	*	*	*	*	*	*	*	*	*	*	*	*	*	*	*	*	*	*	*
=73	=73	=73	=73	=73	=73	=73	=73	=73	=73	=73	=73	=73	=73	=73	=73	=73	=73	=73	=73	=73	=73	=73	=73	=73	=73
4.ryy	4.ryy	4g/	.	4ee-\	.	4E-\	-bis	.	4B-\	-bis	.	4g\	-bis	.	4ee-\	-bis	.	4g/	.	4ee-\	.	4g/	.	4ee-\	.
.	.	8r	.	8r	.	8r	.	.	8r	.	.	8r	.	.	8r	.	.	8r	.	8r	.	8r	.	8r	.
=74	=74	=74	=74	=74	=74	=74||	=74||	=74||	=74||	=74||	=74||	=74	=74	=74	=74	=74	=74	=74	=74	=74	=74	=74	=74	=74||	=74||
*	*	*M2/4	*	*M2/4	*	*M2/4	*	*	*M2/4	*	*	*M2/4	*	*	*M2/4	*	*	*M2/4	*	*M2/4	*	*M2/4	*	*M2/4	*
!	!	!LO:LB:g=original	!	!LO:LB:g=original	!	!	!	!	!	!	!	!	!	!	!	!	!	!	!	!	!	!	!	!	!
!	!	!LO:TX:b:t=3	!	!LO:TX:b:t=3	!	!	!	!	!	!	!	!	!	!	!	!	!	!LO:TX:b:t=3	!	!LO:TX:b:t=3	!	!LO:TX:b:t=3	!	!LO:TX:a:t=3	!
!	!	!LO:TX:a:t=Adagio	!	!LO:TX:a:t=Adagio	!	!LO:TX:a:t=Adagio	!	!LO:DY:b:color=red:t=piano	!LO:TX:a:t=Adagio	!	!LO:DY:b:color=red:t=piano	!LO:TX:a:t=Adagio	!	!LO:DY:b:color=red:t=pia	!LO:TX:a:t=Adagio	!	!LO:DY:b:color=red:t=piano	!LO:TX:a:t=Adagio	!	!LO:TX:a:t=Adagio	!	!LO:TX:a:t=Adagio	!	!LO:TX:a:t=Adagio	!
2ryy	2ryy	1r	.	1r	.	8E-\	mi-	p	8e-\	mi-	p	8g\	mi-	p	8b-\	mi-	p	1r	.	1r	.	1r	.	1r	.
.	.	.	.	.	.	8E-\	-se-	.	8e-\	-se-	.	8g\	-se-	.	8b-\	-se-	.	.	.	.	.	.	.	.	.
.	.	.	.	.	.	8E-\	-re-	.	8e-\	-re-	.	8g\	-re-	.	8b-\	-re-	.	.	.	.	.	.	.	.	.
.	.	.	.	.	.	8E-\	-re	.	8e-\	-re	.	8g\	-re	.	8b-\	-re	.	.	.	.	.	.	.	.	.
=75	=75	=75	=75	=75	=75	=75	=75	=75	=75	=75	=75	=75	=75	=75	=75	=75	=75	=75	=75	=75	=75	=75	=75	=75	=75
!	!	!	!	!	!	!LO:LB:g=original	!	!	!	!	!	!LO:LB:g=original	!	!	!	!	!	!	!	!	!	!	!	!	!
!	!	!	!	!	!	!	!	!	!	!	!	!LO:SIC:v:s=2a-\	!	!	!	!	!	!	!	!	!	!	!	!	!
2ryy	2ryy	.	.	.	.	(4A-\	no-	.	(4e-\	no-	.	2a\	no-	.	(4cc\	no-	.	.	.	.	.	.	.	.	.
.	.	.	.	.	.	4B-\)	.	.	4f\)	.	.	.	.	.	4dd\)	.	.	.	.	.	.	.	.	.	.
=76	=76	=76	=76	=76	=76	=76	=76	=76	=76	=76	=76	=76	=76	=76	=76	=76	=76	=76	=76	=76	=76	=76	=76	=76	=76
2ryy	2ryy	2r	.	2r	.	2E-\	-bis	.	2B-\	-bis	.	2g\	-bis	.	2ee-\	-bis	.	2r	.	2r	.	2r	.	2r	.
!	!	!LO:TX:b:t=il Fine	!	!LO:TX:b:t=il Fine	!	!	!	!	!LO:TX:b:t=il Fine	!	!	!LO:TX:b:t=il Fine	!	!	!LO:TX:b:t=il Fine	!	!	!LO:TX:b:t=il Fine&colon;	!	!LO:TX:b:t=il Fine	!	!LO:TX:b:t=il Fine	!	!LO:TX:b:t=il Fine	!
==	==	==	==	==	==	==	==	==	==	==	==	==	==	==	==	==	==	==	==	==	==	==	==	==	==
*-	*-	*-	*-	*-	*-	*-	*-	*-	*-	*-	*-	*-	*-	*-	*-	*-	*-	*-	*-	*-	*-	*-	*-	*-	*-
!!!system-decoration: [(g1)][(g2)][(g3)][(g4)]s12
!!!RDF**kern: > = above
!!!RDF**kern: < = below
!!!RDF**kern: | = vertical stroke
!!!RDF**dynam: < = cres
!!!ENC: Berenika Jozajtis
!!!END: 2020-11-02
!!!ENC: Krzysztof Stępień
!!!END: 2022-04-27
!!!YEC: Copyright 2022 Narodowy Instytut Fryderyka Chopina (https://polishscores.org)
!!!YEM: Licence CC BY 4.0 (https://creativecommons.org/licenses/by/4.0)
